; generated by Slic3r 1.3.1-dev on 2019-09-07 at 09:26:37

; Print Config Notes: 
; DMF_3D_0.3mmThin333HC30%PETGear
; 
; Filament notes: 
; DMF_3D_1.75x1.00NatPETG250 B95
; 
; external perimeters extrusion width = 0.66mm (2.68mm^3/s)
; perimeters extrusion width = 0.54mm (2.85mm^3/s)
; infill extrusion width = 0.90mm (7.52mm^3/s)
; solid infill extrusion width = 0.51mm (4.01mm^3/s)
; top infill extrusion width = 0.51mm (4.01mm^3/s)

M190 S95 ; set bed temperature and wait for it to be reached
M104 S250 ; set temperature
G28 ; home all axes
; Filament gcode

M109 S250 ; set temperature and wait for it to be reached
G21 ; set units to millimeters
G90 ; use absolute coordinates
M82 ; use absolute distances for extrusion
G92 E0
G1 Z0.300 F3000.000
G1 E-0.60000 F900.00000
G92 E0
G1 X94.754 Y84.420 F3000.000
G1 E0.65000 F900.00000
G1 F1440
G1 X96.388 Y82.604 E0.81320
G1 X98.369 Y80.676 E0.99786
G1 X100.733 Y78.693 E1.20401
G1 X102.976 Y77.077 E1.38868
G1 X105.047 Y75.782 E1.55188
G1 X107.483 Y74.475 E1.73656
G1 X110.302 Y73.220 E1.94269
G1 X112.597 Y72.384 E2.10589
G1 X115.252 Y71.611 E2.29057
G1 X118.270 Y70.970 E2.49671
G1 X120.689 Y70.630 E2.65992
G1 X123.446 Y70.426 E2.84459
G1 X126.532 Y70.426 E3.05073
G1 X128.969 Y70.596 E3.21393
G1 X129.461 Y70.654 E3.24707
G1 X132.024 Y71.026 E3.42008
G1 X134.414 Y71.533 E3.58329
G1 X137.380 Y72.384 E3.78944
G1 X139.974 Y73.340 E3.97409
G1 X142.205 Y74.334 E4.13730
G1 X144.651 Y75.621 E4.32198
G1 X152.776 Y80.463 E4.95380
G1 X153.170 Y80.722 E4.98526
G1 X153.485 Y80.965 E5.01185
G1 X153.784 Y81.230 E5.03856
G1 X154.271 Y81.757 E5.08648
G1 X154.514 Y82.078 E5.11341
G1 X154.729 Y82.407 E5.13966
G1 X159.934 Y91.359 E5.83142
G1 X163.904 Y98.621 E6.38432
G1 X164.097 Y99.003 E6.41291
G1 X164.279 Y99.447 E6.44503
G1 X164.480 Y100.136 E6.49291
G1 X164.565 Y100.607 E6.52491
G1 X164.618 Y101.317 E6.57250
G1 X164.596 Y110.012 E7.15336
G1 X164.485 Y112.923 E7.34795
G1 X164.185 Y115.671 E7.53263
G1 X163.761 Y118.077 E7.69584
G1 X163.103 Y120.762 E7.88051
G1 X162.259 Y123.394 E8.06519
G1 X161.234 Y125.961 E8.24985
G1 X159.882 Y128.735 E8.45600
G1 X158.660 Y130.851 E8.61920
G1 X157.124 Y133.149 E8.80388
G1 X155.224 Y135.580 E9.01002
G1 X153.366 Y137.627 E9.19468
G1 X151.609 Y139.324 E9.35788
G1 X149.498 Y141.109 E9.54256
G1 X147.002 Y142.923 E9.74870
G1 X144.930 Y144.218 E9.91191
G1 X142.495 Y145.525 E10.09658
G1 X139.676 Y146.780 E10.30271
G1 X137.074 Y147.715 E10.48738
G1 X134.726 Y148.389 E10.65060
G1 X131.708 Y149.030 E10.85674
G1 X128.969 Y149.404 E11.04141
G1 X126.532 Y149.574 E11.20462
G1 X123.767 Y149.586 E11.38929
G1 X120.689 Y149.370 E11.59543
G1 X118.270 Y149.030 E11.75863
G1 X115.564 Y148.467 E11.94330
G1 X112.903 Y147.715 E12.12798
G1 X110.004 Y146.660 E12.33411
G1 X107.483 Y145.525 E12.51879
G1 X105.326 Y144.379 E12.68200
G1 X102.709 Y142.743 E12.88813
G1 X100.733 Y141.307 E13.05134
G1 X98.608 Y139.539 E13.23601
G1 X96.612 Y137.627 E13.42070
G1 X94.547 Y135.334 E13.62683
G1 X93.043 Y133.409 E13.79003
G1 X91.488 Y131.123 E13.97470
G1 X89.945 Y128.451 E14.18085
G1 X88.874 Y126.255 E14.34405
G1 X87.828 Y123.696 E14.52873
G1 X86.874 Y120.762 E14.73486
G1 X86.283 Y118.391 E14.89807
G1 X85.823 Y115.843 E15.07108
G1 X85.748 Y115.352 E15.10422
G1 X85.492 Y112.923 E15.26742
G1 X85.385 Y109.839 E15.47356
G1 X85.470 Y107.398 E15.63677
G1 X85.748 Y104.647 E15.82143
G1 X86.217 Y101.923 E16.00611
G1 X86.963 Y98.929 E16.21226
G1 X87.718 Y96.606 E16.37546
G1 X88.743 Y94.039 E16.56012
G1 X90.096 Y91.265 E16.76626
G1 X91.317 Y89.149 E16.92947
G1 X92.854 Y86.851 E17.11414
G1 X94.715 Y84.466 E17.31629
G1 X95.152 Y84.778 F3000.000
G1 F1440
G1 X96.786 Y82.963 E17.47949
G1 X98.741 Y81.061 E17.66165
G1 X101.048 Y79.126 E17.86281
G1 X103.024 Y77.690 E18.02601
G1 X105.331 Y76.236 E18.20819
G1 X107.734 Y74.948 E18.39036
G1 X110.485 Y73.723 E18.59150
G1 X113.051 Y72.799 E18.77368
G1 X115.399 Y72.126 E18.93689
G1 X118.344 Y71.500 E19.13804
G1 X120.764 Y71.160 E19.30124
G1 X123.483 Y70.960 E19.48342
G1 X126.494 Y70.960 E19.68457
G1 X128.931 Y71.130 E19.84777
G1 X129.387 Y71.184 E19.87841
G1 X131.913 Y71.549 E20.04893
G1 X134.302 Y72.057 E20.21213
G1 X137.197 Y72.887 E20.41329
G1 X139.492 Y73.723 E20.57649
G1 X141.988 Y74.823 E20.75865
G1 X144.400 Y76.094 E20.94084
G1 X152.498 Y80.921 E21.57060
G1 X152.860 Y81.159 E21.59959
G1 X153.146 Y81.379 E21.62369
G1 X153.416 Y81.620 E21.64789
G1 X153.853 Y82.092 E21.69084
G1 X154.074 Y82.383 E21.71523
G1 X154.268 Y82.681 E21.73902
G1 X159.464 Y91.616 E22.42947
G1 X163.609 Y99.223 E23.00822
G1 X163.777 Y99.633 E23.03779
G1 X163.956 Y100.249 E23.08070
G1 X164.035 Y100.684 E23.11018
G1 X164.082 Y101.320 E23.15283
G1 X164.060 Y110.011 E23.73340
G1 X163.952 Y112.867 E23.92435
G1 X163.657 Y115.578 E24.10653
G1 X163.233 Y117.984 E24.26974
G1 X162.583 Y120.632 E24.45192
G1 X161.750 Y123.229 E24.63410
G1 X160.738 Y125.761 E24.81626
G1 X159.418 Y128.467 E25.01742
G1 X158.196 Y130.583 E25.18062
G1 X156.679 Y132.849 E25.36280
G1 X154.826 Y135.222 E25.56395
G1 X152.994 Y137.242 E25.74611
G1 X151.237 Y138.939 E25.90932
G1 X149.154 Y140.699 E26.09150
G1 X146.718 Y142.469 E26.29265
G1 X144.646 Y143.764 E26.45586
G1 X142.243 Y145.052 E26.63803
G1 X139.492 Y146.277 E26.83917
G1 X136.927 Y147.200 E27.02135
G1 X134.578 Y147.874 E27.18456
G1 X131.633 Y148.500 E27.38570
G1 X128.931 Y148.870 E27.56789
G1 X126.494 Y149.040 E27.73109
G1 X123.767 Y149.050 E27.91326
G1 X120.764 Y148.840 E28.11441
G1 X118.344 Y148.500 E28.27762
G1 X115.675 Y147.943 E28.45979
G1 X113.051 Y147.201 E28.64197
G1 X110.222 Y146.171 E28.84311
G1 X107.734 Y145.053 E29.02529
G1 X105.577 Y143.906 E29.18850
G1 X103.024 Y142.310 E29.38965
G1 X101.048 Y140.874 E29.55285
G1 X98.952 Y139.129 E29.73503
G1 X96.786 Y137.037 E29.93617
G1 X94.969 Y135.004 E30.11836
G1 X93.465 Y133.079 E30.28156
G1 X91.932 Y130.824 E30.46373
G1 X90.426 Y128.216 E30.66488
G1 X89.355 Y126.020 E30.82809
G1 X88.325 Y123.496 E31.01027
G1 X87.394 Y120.632 E31.21141
G1 X86.803 Y118.262 E31.37462
G1 X86.350 Y115.750 E31.54513
G1 X86.280 Y115.297 E31.57578
G1 X86.025 Y112.867 E31.73898
G1 X85.920 Y109.858 E31.94013
G1 X86.005 Y107.416 E32.10333
G1 X86.280 Y104.703 E32.28549
G1 X86.744 Y102.016 E32.46768
G1 X87.473 Y99.094 E32.66883
G1 X88.228 Y96.771 E32.83204
G1 X89.240 Y94.239 E33.01420
G1 X90.560 Y91.533 E33.21535
G1 X91.781 Y89.417 E33.37856
G1 X93.298 Y87.151 E33.56074
G1 X95.113 Y84.824 E33.75789
G1 X95.550 Y85.137 F3000.000
G1 F1440
G1 X97.184 Y83.321 E33.92109
G1 X99.113 Y81.447 E34.10076
G1 X101.168 Y79.711 E34.28044
G1 X103.543 Y77.985 E34.47660
G1 X105.615 Y76.691 E34.63980
G1 X107.986 Y75.420 E34.81948
G1 X110.668 Y74.226 E35.01563
G1 X113.198 Y73.314 E35.19532
G1 X115.547 Y72.641 E35.35852
G1 X118.419 Y72.030 E35.55468
G1 X120.838 Y71.690 E35.71788
G1 X123.521 Y71.494 E35.89757
G1 X126.457 Y71.494 E36.09372
G1 X128.894 Y71.665 E36.25692
G1 X129.312 Y71.715 E36.28506
G1 X131.801 Y72.073 E36.45308
G1 X134.191 Y72.581 E36.61629
G1 X137.014 Y73.391 E36.81245
G1 X139.309 Y74.226 E36.97565
G1 X141.770 Y75.312 E37.15532
G1 X144.149 Y76.567 E37.33501
G1 X152.219 Y81.379 E37.96272
G1 X152.551 Y81.596 E37.98924
G1 X152.807 Y81.794 E38.01084
G1 X153.049 Y82.010 E38.03253
G1 X153.435 Y82.428 E38.07051
G1 X153.808 Y82.955 E38.11368
G1 X158.994 Y91.872 E38.80280
G1 X163.121 Y99.443 E39.37883
G1 X163.274 Y99.818 E39.40586
G1 X163.433 Y100.363 E39.44380
G1 X163.505 Y100.760 E39.47075
G1 X163.546 Y101.323 E39.50846
G1 X163.524 Y110.009 E40.08876
G1 X163.420 Y112.811 E40.27605
G1 X163.130 Y115.485 E40.45574
G1 X162.706 Y117.891 E40.61895
G1 X162.063 Y120.503 E40.79862
G1 X161.240 Y123.063 E40.97831
G1 X160.241 Y125.560 E41.15798
G1 X158.954 Y128.199 E41.35414
G1 X157.732 Y130.315 E41.51735
G1 X156.235 Y132.550 E41.69703
G1 X154.428 Y134.863 E41.89319
G1 X152.793 Y136.679 E42.05639
G1 X150.864 Y138.553 E42.23606
G1 X148.810 Y140.289 E42.41574
G1 X146.434 Y142.015 E42.61190
G1 X144.362 Y143.309 E42.77511
G1 X141.992 Y144.580 E42.95478
G1 X139.309 Y145.774 E43.15093
G1 X136.779 Y146.686 E43.33061
G1 X134.431 Y147.359 E43.49382
G1 X131.558 Y147.970 E43.68998
G1 X128.894 Y148.335 E43.86966
G1 X126.210 Y148.514 E44.04934
G1 X123.767 Y148.514 E44.21255
G1 X120.838 Y148.310 E44.40870
G1 X118.419 Y147.970 E44.57191
G1 X115.786 Y147.419 E44.75158
G1 X113.199 Y146.686 E44.93127
G1 X110.440 Y145.681 E45.12741
G1 X107.986 Y144.580 E45.30710
G1 X105.829 Y143.433 E45.47031
G1 X103.339 Y141.877 E45.66646
G1 X101.362 Y140.441 E45.82967
G1 X99.296 Y138.719 E46.00935
G1 X97.184 Y136.679 E46.20550
G1 X95.391 Y134.674 E46.38519
G1 X93.887 Y132.749 E46.54839
G1 X92.376 Y130.524 E46.72807
G1 X90.908 Y127.981 E46.92423
G1 X89.837 Y125.786 E47.08743
G1 X88.821 Y123.295 E47.26711
G1 X87.914 Y120.503 E47.46327
G1 X87.323 Y118.132 E47.62647
G1 X86.878 Y115.657 E47.79449
G1 X86.813 Y115.241 E47.82264
G1 X86.558 Y112.811 E47.98584
G1 X86.455 Y109.877 E48.18199
G1 X86.541 Y107.435 E48.34520
G1 X86.813 Y104.759 E48.52487
G1 X87.272 Y102.109 E48.70455
G1 X87.982 Y99.260 E48.90072
G1 X88.737 Y96.937 E49.06392
G1 X89.736 Y94.440 E49.24359
G1 X91.024 Y91.801 E49.43975
G1 X92.245 Y89.685 E49.60295
G1 X93.742 Y87.450 E49.78264
G1 X95.511 Y85.182 E49.97479
G1 E49.37479 F900.00000
G92 E0
G1 X128.363 Y142.771 F3000.000
G1 E0.65000 F900.00000
G1 F720
G1 X128.245 Y142.993 E0.66678
G1 X128.087 Y143.181 E0.68321
G1 X127.951 Y143.296 E0.69510
G1 X127.738 Y143.419 E0.71154
G1 X127.499 Y143.496 E0.72832
G1 X127.249 Y143.523 E0.74510
G1 X126.999 Y143.496 E0.76188
G1 X126.760 Y143.419 E0.77866
G1 X126.547 Y143.296 E0.79509
G1 X126.411 Y143.181 E0.80699
G1 X126.253 Y142.993 E0.82342
G1 X126.135 Y142.771 E0.84020
G1 X126.067 Y142.535 E0.85663
G1 X126.048 Y142.358 E0.86852
G1 X126.065 Y142.112 E0.88495
G1 X126.135 Y141.871 E0.90174
G1 X126.250 Y141.654 E0.91817
G1 X126.360 Y141.514 E0.93006
G1 X126.542 Y141.349 E0.94649
G1 X126.760 Y141.223 E0.96327
G1 X126.999 Y141.146 E0.98004
G1 X127.238 Y141.120 E0.99613
G1 X127.421 Y141.132 E1.00834
G1 X127.660 Y141.192 E1.02481
G1 X127.886 Y141.302 E1.04159
G1 X128.080 Y141.454 E1.05806
G1 X128.202 Y141.590 E1.07027
G1 X128.329 Y141.794 E1.08636
G1 X128.415 Y142.030 E1.10312
G1 X128.450 Y142.279 E1.11991
G1 X128.432 Y142.530 E1.13670
G1 X128.379 Y142.714 E1.14947
G1 X128.363 Y142.771 F3000.000
G1 E0.54947 F900.00000
G92 E0
G1 X137.779 Y139.565 F3000.000
G1 E0.65000 F900.00000
G1 F720
G1 X137.738 Y139.317 E0.66678
G1 X137.749 Y139.071 E0.68322
G1 X137.787 Y138.898 E0.69511
G1 X137.881 Y138.670 E0.71154
G1 X138.024 Y138.463 E0.72832
G1 X138.206 Y138.290 E0.74510
G1 X138.420 Y138.159 E0.76189
G1 X138.657 Y138.075 E0.77866
G1 X138.895 Y138.044 E0.79474
G1 X139.078 Y138.051 E0.80695
G1 X139.319 Y138.104 E0.82342
G1 X139.547 Y138.208 E0.84020
G1 X139.749 Y138.358 E0.85698
G1 X139.912 Y138.542 E0.87342
G1 X140.005 Y138.694 E0.88532
G1 X140.095 Y138.923 E0.90174
G1 X140.137 Y139.170 E0.91852
G1 X140.126 Y139.421 E0.93531
G1 X140.063 Y139.665 E0.95210
G1 X139.951 Y139.889 E0.96887
G1 X139.794 Y140.086 E0.98565
G1 X139.605 Y140.243 E1.00209
G1 X139.450 Y140.330 E1.01398
G1 X139.218 Y140.412 E1.03040
G1 X138.969 Y140.445 E1.04719
G1 X138.718 Y140.425 E1.06398
G1 X138.477 Y140.354 E1.08076
G1 X138.261 Y140.237 E1.09719
G1 X138.007 Y140.004 E1.12022
G1 X137.871 Y139.799 E1.13665
G1 X137.801 Y139.621 E1.14942
G1 X137.779 Y139.565 F3000.000
G1 E0.54942 F900.00000
G92 E0
G1 X147.676 Y132.750 F3000.000
G1 E0.65000 F900.00000
G1 F720
G1 X147.563 Y132.527 E0.66669
G1 X147.498 Y132.286 E0.68336
G1 X147.481 Y132.023 E0.70101
G1 X147.525 Y131.782 E0.71734
G1 X147.612 Y131.556 E0.73352
G1 X147.704 Y131.404 E0.74541
G1 X147.862 Y131.222 E0.76150
G1 X148.000 Y131.110 E0.77339
G1 X148.215 Y130.991 E0.78982
G1 X148.455 Y130.917 E0.80658
G1 X148.695 Y130.896 E0.82268
G1 X148.877 Y130.911 E0.83489
G1 X149.115 Y130.975 E0.85135
G1 X149.339 Y131.089 E0.86813
G1 X149.534 Y131.247 E0.88492
G1 X149.692 Y131.442 E0.90170
G1 X149.806 Y131.666 E0.91848
G1 X149.870 Y131.904 E0.93492
G1 X149.886 Y132.081 E0.94681
G1 X149.864 Y132.326 E0.96324
G1 X149.791 Y132.566 E0.98002
G1 X149.669 Y132.786 E0.99680
G1 X149.504 Y132.976 E1.01359
G1 X149.303 Y133.127 E1.03037
G1 X149.081 Y133.231 E1.04680
G1 X148.909 Y133.277 E1.05869
G1 X148.669 Y133.298 E1.07476
G1 X148.492 Y133.282 E1.08666
G1 X148.254 Y133.219 E1.10310
G1 X148.033 Y133.106 E1.11963
G1 X147.842 Y132.959 E1.13572
G1 X147.714 Y132.797 E1.14957
G1 X147.676 Y132.750 F3000.000
G1 E0.54957 F900.00000
G92 E0
G1 X154.502 Y122.896 F3000.000
G1 E0.65000 F900.00000
G1 F720
G1 X154.307 Y122.746 E0.66643
G1 X154.144 Y122.555 E0.68321
G1 X154.024 Y122.335 E0.69999
G1 X153.954 Y122.099 E0.71643
G1 X153.935 Y121.926 E0.72801
G1 X153.940 Y121.749 E0.73986
G1 X153.988 Y121.513 E0.75596
G1 X154.088 Y121.283 E0.77272
G1 X154.234 Y121.078 E0.78951
G1 X154.419 Y120.909 E0.80629
G1 X154.636 Y120.781 E0.82307
G1 X154.874 Y120.702 E0.83983
G1 X155.113 Y120.674 E0.85592
G1 X155.296 Y120.684 E0.86814
G1 X155.535 Y120.742 E0.88461
G1 X155.762 Y120.850 E0.90139
G1 X155.957 Y121.000 E0.91781
G1 X156.077 Y121.131 E0.92971
G1 X156.210 Y121.338 E0.94614
G1 X156.298 Y121.574 E0.96292
G1 X156.335 Y121.822 E0.97971
G1 X156.320 Y122.068 E0.99614
G1 X156.278 Y122.241 E1.00804
G1 X156.180 Y122.466 E1.02446
G1 X156.034 Y122.671 E1.04124
G1 X155.849 Y122.841 E1.05802
G1 X155.633 Y122.968 E1.07480
G1 X155.394 Y123.048 E1.09159
G1 X155.145 Y123.076 E1.10837
G1 X154.895 Y123.052 E1.12515
G1 X154.660 Y122.978 E1.14158
G1 X154.555 Y122.924 E1.14947
G1 X154.502 Y122.896 F3000.000
G1 E0.54947 F900.00000
G92 E0
G1 X157.180 Y111.183 F3000.000
G1 E0.65000 F900.00000
G1 F720
G1 X156.939 Y111.114 E0.66678
G1 X156.717 Y110.996 E0.68356
G1 X156.524 Y110.835 E0.70035
G1 X156.373 Y110.641 E0.71681
G1 X156.287 Y110.479 E0.72902
G1 X156.213 Y110.250 E0.74511
G1 X156.187 Y110.000 E0.76188
G1 X156.213 Y109.750 E0.77866
G1 X156.291 Y109.511 E0.79544
G1 X156.414 Y109.298 E0.81187
G1 X156.528 Y109.162 E0.82377
G1 X156.713 Y109.007 E0.83984
G1 X156.867 Y108.918 E0.85174
G1 X157.098 Y108.834 E0.86817
G1 X157.347 Y108.799 E0.88495
G1 X157.597 Y108.817 E0.90174
G1 X157.839 Y108.886 E0.91851
G1 X158.061 Y109.004 E0.93530
G1 X158.249 Y109.162 E0.95173
G1 X158.363 Y109.298 E0.96362
G1 X158.486 Y109.511 E0.98005
G1 X158.564 Y109.750 E0.99683
G1 X158.590 Y110.000 E1.01362
G1 X158.564 Y110.250 E1.03040
G1 X158.486 Y110.489 E1.04718
G1 X158.363 Y110.702 E1.06361
G1 X158.249 Y110.838 E1.07549
G1 X158.069 Y110.990 E1.09123
G1 X157.911 Y111.082 E1.10345
G1 X157.679 Y111.166 E1.11991
G1 X157.431 Y111.201 E1.13669
G1 X157.240 Y111.188 E1.14946
G1 X157.180 Y111.183 F3000.000
G1 E0.54946 F900.00000
G92 E0
G1 X150.953 Y91.447 F3000.000
G1 E0.65000 F900.00000
G1 F720
G1 X150.683 Y91.478 E0.66818
G1 X150.433 Y91.449 E0.68496
G1 X150.200 Y91.371 E0.70139
G1 X150.044 Y91.286 E0.71328
G1 X149.855 Y91.137 E0.72936
G1 X149.737 Y91.003 E0.74126
G1 X149.609 Y90.793 E0.75769
G1 X149.525 Y90.557 E0.77448
G1 X149.492 Y90.308 E0.79125
G1 X149.512 Y90.057 E0.80804
G1 X149.582 Y89.821 E0.82447
G1 X149.661 Y89.662 E0.83636
G1 X149.807 Y89.464 E0.85279
G1 X149.996 Y89.298 E0.86957
G1 X150.214 Y89.174 E0.88636
G1 X150.454 Y89.099 E0.90312
G1 X150.693 Y89.075 E0.91921
G1 X150.876 Y89.089 E0.93142
G1 X151.114 Y89.151 E0.94789
G1 X151.339 Y89.263 E0.96467
G1 X151.531 Y89.416 E0.98110
G1 X151.649 Y89.549 E0.99300
G1 X151.778 Y89.759 E1.00943
G1 X151.860 Y89.989 E1.02576
G1 X151.894 Y90.186 E1.03907
G1 X151.886 Y90.416 E1.05447
G1 X151.833 Y90.657 E1.07100
G1 X151.729 Y90.886 E1.08778
G1 X151.579 Y91.088 E1.10457
G1 X151.391 Y91.254 E1.12135
G1 X151.173 Y91.378 E1.13813
G1 X151.011 Y91.429 E1.14948
G1 X150.949 Y91.468 F3000.000
G1 E0.54948 F900.00000
G92 E0
G1 X142.529 Y83.073 F3000.000
G1 E0.65000 F900.00000
G1 F720
G1 X142.395 Y83.190 E0.66189
G1 X142.184 Y83.317 E0.67833
G1 X141.946 Y83.399 E0.69511
G1 X141.702 Y83.429 E0.71154
G1 X141.524 Y83.419 E0.72343
G1 X141.285 Y83.364 E0.73987
G1 X141.057 Y83.258 E0.75664
G1 X140.861 Y83.110 E0.77307
G1 X140.739 Y82.980 E0.78497
G1 X140.605 Y82.773 E0.80140
G1 X140.515 Y82.539 E0.81819
