; generated by Slic3r 1.3.1-dev on 2019-08-11 at 10:13:49

; Print Config Notes: 
; DMF_3D_0.2mm353HC30%PETG
; Slower for PETG
; 
; Filament notes: 
; DMF_3D_1.75x1.00NatPETG250 B95
; 
; external perimeters extrusion width = 0.40mm (1.43mm^3/s)
; perimeters extrusion width = 0.50mm (2.74mm^3/s)
; infill extrusion width = 0.44mm (3.18mm^3/s)
; solid infill extrusion width = 0.40mm (2.86mm^3/s)
; top infill extrusion width = 0.40mm (2.86mm^3/s)

M190 S95 ; set bed temperature and wait for it to be reached
M104 S250 ; set temperature
G28 ; home all axes
; Filament gcode

M109 S250 ; set temperature and wait for it to be reached
G21 ; set units to millimeters
G90 ; use absolute coordinates
M82 ; use absolute distances for extrusion
G92 E0
G1 Z0.300 F9000.000
G1 E-0.60000 F900.00000
G92 E0
G1 X95.021 Y84.661 F9000.000
G1 E0.65000 F900.00000
G1 F1920
G1 X96.656 Y82.845 E0.77664
G1 X98.619 Y80.935 E0.91862
G1 X100.944 Y78.984 E1.07598
G1 X102.921 Y77.548 E1.20262
G1 X105.238 Y76.088 E1.34462
G1 X107.652 Y74.792 E1.48662
G1 X110.425 Y73.558 E1.64396
G1 X113.002 Y72.631 E1.78596
G1 X115.351 Y71.957 E1.91260
G1 X118.320 Y71.326 E2.06996
G1 X121.034 Y70.955 E2.21196
G1 X123.471 Y70.785 E2.33860
G1 X126.506 Y70.785 E2.49595
G1 X128.943 Y70.955 E2.62259
G1 X129.411 Y71.010 E2.64700
G1 X131.949 Y71.378 E2.77995
G1 X134.339 Y71.886 E2.90659
G1 X137.257 Y72.722 E3.06395
G1 X139.827 Y73.669 E3.20593
G1 X142.059 Y74.662 E3.33257
G1 X144.482 Y75.939 E3.47458
G1 X152.589 Y80.771 E3.96381
G1 X152.962 Y81.016 E3.98689
G1 X153.257 Y81.243 E4.00622
G1 X153.537 Y81.492 E4.02564
G1 X153.990 Y81.982 E4.06024
G1 X154.218 Y82.283 E4.07981
G1 X154.419 Y82.592 E4.09890
G1 X159.618 Y91.531 E4.63499
G1 X163.769 Y99.151 E5.08477
G1 X163.941 Y99.571 E5.10833
G1 X164.128 Y100.212 E5.14293
G1 X164.208 Y100.657 E5.16636
G1 X164.258 Y101.319 E5.20079
G1 X164.236 Y110.011 E5.65137
G1 X164.127 Y112.885 E5.80046
G1 X163.830 Y115.608 E5.94246
G1 X163.406 Y118.014 E6.06911
G1 X162.754 Y120.675 E6.21110
G1 X161.917 Y123.283 E6.35311
G1 X160.900 Y125.827 E6.49509
G1 X159.570 Y128.555 E6.65245
G1 X158.348 Y130.671 E6.77909
G1 X156.825 Y132.947 E6.92109
G1 X154.956 Y135.339 E7.07845
G1 X153.116 Y137.368 E7.22043
G1 X151.358 Y139.065 E7.34707
G1 X149.267 Y140.834 E7.48907
G1 X146.811 Y142.618 E7.64642
G1 X144.739 Y143.912 E7.77307
G1 X142.325 Y145.208 E7.91506
G1 X139.553 Y146.442 E8.07241
G1 X136.975 Y147.369 E8.21440
G1 X134.627 Y148.043 E8.34105
G1 X131.657 Y148.674 E8.49840
G1 X128.943 Y149.045 E8.64040
G1 X126.210 Y149.226 E8.78240
G1 X123.471 Y149.215 E8.92439
G1 X121.034 Y149.045 E9.05104
G1 X118.028 Y148.622 E9.20839
G1 X115.351 Y148.043 E9.35038
G1 X113.002 Y147.369 E9.47703
G1 X110.150 Y146.331 E9.63437
G1 X107.652 Y145.208 E9.77637
G1 X105.495 Y144.061 E9.90302
G1 X102.921 Y142.452 E10.06037
G1 X100.944 Y141.016 E10.18701
G1 X98.839 Y139.263 E10.32901
G1 X96.862 Y137.368 E10.47101
G1 X94.830 Y135.112 E10.62836
G1 X93.326 Y133.187 E10.75500
G1 X91.786 Y130.922 E10.89699
G1 X90.268 Y128.293 E11.05435
G1 X89.198 Y126.097 E11.18099
G1 X88.162 Y123.562 E11.32299
G1 X87.224 Y120.675 E11.48034
G1 X86.633 Y118.304 E11.60698
G1 X86.177 Y115.780 E11.73993
G1 X86.106 Y115.315 E11.76434
G1 X85.850 Y112.885 E11.89098
G1 X85.744 Y109.852 E12.04833
G1 X85.830 Y107.410 E12.17497
G1 X86.106 Y104.685 E12.31696
G1 X86.571 Y101.986 E12.45896
G1 X87.306 Y99.040 E12.61632
G1 X88.061 Y96.717 E12.74296
G1 X89.077 Y94.173 E12.88495
G1 X90.408 Y91.445 E13.04230
G1 X91.629 Y89.329 E13.16894
G1 X93.152 Y87.053 E13.31094
G1 X94.983 Y84.707 E13.46519
G1 X95.330 Y84.939 F9000.000
G1 F1920
G1 X97.150 Y82.931 E13.60567
G1 X98.908 Y81.234 E13.73231
G1 X100.978 Y79.485 E13.87281
G1 X103.387 Y77.735 E14.02716
G1 X105.458 Y76.440 E14.15380
G1 X107.847 Y75.159 E14.29429
G1 X110.567 Y73.948 E14.44864
G1 X112.863 Y73.113 E14.57527
G1 X115.465 Y72.357 E14.71577
G1 X118.378 Y71.738 E14.87012
G1 X120.797 Y71.398 E14.99676
G1 X123.500 Y71.199 E15.13726
G1 X126.210 Y71.190 E15.27775
G1 X129.180 Y71.398 E15.43210
G1 X131.600 Y71.738 E15.55874
G1 X134.252 Y72.292 E15.69923
G1 X137.115 Y73.113 E15.85358
G1 X139.410 Y73.948 E15.98022
G1 X141.890 Y75.042 E16.12071
G1 X144.287 Y76.306 E16.26121
G1 X152.373 Y81.126 E16.74919
G1 X152.722 Y81.355 E16.77080
G1 X152.994 Y81.565 E16.78863
G1 X153.252 Y81.795 E16.80654
G1 X153.666 Y82.243 E16.83813
G1 X154.062 Y82.804 E16.87377
G1 X159.254 Y91.731 E17.40907
G1 X163.390 Y99.322 E17.85720
G1 X163.551 Y99.715 E17.87924
G1 X163.722 Y100.300 E17.91084
G1 X163.797 Y100.716 E17.93276
G1 X163.842 Y101.321 E17.96421
G1 X163.820 Y110.010 E18.41462
G1 X163.714 Y112.842 E18.56151
G1 X163.421 Y115.536 E18.70201
G1 X162.997 Y117.942 E18.82865
G1 X162.350 Y120.574 E18.96915
G1 X161.522 Y123.155 E19.10965
G1 X160.515 Y125.671 E19.25013
G1 X159.210 Y128.347 E19.40448
G1 X157.988 Y130.463 E19.53112
G1 X156.481 Y132.715 E19.67162
G1 X154.647 Y135.061 E19.82597
G1 X153.013 Y136.877 E19.95261
G1 X151.070 Y138.766 E20.09309
G1 X149.000 Y140.515 E20.23359
G1 X146.591 Y142.265 E20.38793
G1 X144.519 Y143.560 E20.51458
G1 X142.130 Y144.841 E20.65507
G1 X139.410 Y146.052 E20.80941
G1 X136.860 Y146.970 E20.94991
G1 X134.512 Y147.643 E21.07655
G1 X131.600 Y148.262 E21.23090
G1 X128.914 Y148.630 E21.37139
G1 X126.477 Y148.801 E21.49803
G1 X123.767 Y148.810 E21.63853
G1 X120.797 Y148.602 E21.79287
G1 X118.378 Y148.262 E21.91951
G1 X115.725 Y147.708 E22.06001
G1 X113.117 Y146.970 E22.20050
G1 X110.319 Y145.951 E22.35484
G1 X107.847 Y144.841 E22.49534
G1 X105.690 Y143.694 E22.62198
G1 X103.165 Y142.116 E22.77633
G1 X101.189 Y140.680 E22.90297
G1 X99.106 Y138.945 E23.04346
G1 X97.150 Y137.069 E23.18397
G1 X95.158 Y134.856 E23.33831
G1 X93.654 Y132.931 E23.46495
G1 X92.131 Y130.690 E23.60544
G1 X90.642 Y128.111 E23.75979
G1 X89.571 Y125.915 E23.88643
G1 X88.547 Y123.406 E24.02692
G1 X87.627 Y120.574 E24.18127
G1 X87.036 Y118.204 E24.30791
G1 X86.587 Y115.708 E24.43936
G1 X86.519 Y115.271 E24.46226
G1 X86.264 Y112.842 E24.58890
G1 X86.160 Y109.866 E24.74325
G1 X86.245 Y107.425 E24.86989
G1 X86.519 Y104.729 E25.01037
G1 X86.980 Y102.058 E25.15087
G1 X87.701 Y99.169 E25.30523
G1 X88.547 Y96.594 E25.44571
G1 X89.462 Y94.329 E25.57235
G1 X90.768 Y91.653 E25.72670
G1 X91.989 Y89.537 E25.85334
G1 X93.497 Y87.285 E25.99384
G1 X95.291 Y84.985 E26.14508
G1 X95.639 Y85.217 F9000.000
G1 F1920
G1 X97.274 Y83.401 E26.27172
G1 X99.196 Y81.533 E26.41070
G1 X101.245 Y79.803 E26.54969
G1 X103.607 Y78.087 E26.70104
G1 X105.679 Y76.792 E26.82768
G1 X108.042 Y75.526 E26.96667
G1 X110.709 Y74.339 E27.11800
G1 X113.232 Y73.430 E27.25700
G1 X115.580 Y72.756 E27.38364
G1 X118.436 Y72.149 E27.53498
G1 X121.092 Y71.784 E27.67397
G1 X123.529 Y71.614 E27.80061
G1 X126.448 Y71.614 E27.95195
G1 X129.123 Y71.809 E28.09094
G1 X131.542 Y72.149 E28.21758
G1 X134.166 Y72.699 E28.35657
G1 X136.973 Y73.503 E28.50792
G1 X139.268 Y74.339 E28.63456
G1 X141.721 Y75.422 E28.77354
G1 X144.092 Y76.673 E28.91254
G1 X152.157 Y81.481 E29.39928
G1 X152.482 Y81.694 E29.41941
G1 X152.731 Y81.887 E29.43573
G1 X152.967 Y82.098 E29.45213
G1 X153.342 Y82.503 E29.48073
G1 X153.705 Y83.017 E29.51336
G1 X158.889 Y91.930 E30.04787
G1 X163.011 Y99.493 E30.49437
G1 X163.161 Y99.859 E30.51488
G1 X163.316 Y100.389 E30.54348
G1 X163.386 Y100.776 E30.56389
G1 X163.426 Y101.324 E30.59235
G1 X163.404 Y110.009 E31.04259
G1 X163.300 Y112.798 E31.18729
G1 X163.012 Y115.464 E31.32629
G1 X162.588 Y117.870 E31.45293
G1 X161.947 Y120.474 E31.59192
G1 X161.126 Y123.026 E31.73091
G1 X160.130 Y125.515 E31.86990
G1 X158.850 Y128.139 E32.02124
G1 X157.628 Y130.255 E32.14788
G1 X156.136 Y132.483 E32.28687
G1 X154.339 Y134.783 E32.43822
G1 X152.704 Y136.599 E32.56486
G1 X150.781 Y138.467 E32.70384
G1 X148.732 Y140.197 E32.84283
G1 X146.371 Y141.913 E32.99417
G1 X144.299 Y143.208 E33.12082
G1 X141.935 Y144.474 E33.25981
G1 X139.268 Y145.661 E33.41114
G1 X136.746 Y146.570 E33.55013
G1 X134.397 Y147.244 E33.67678
G1 X131.777 Y147.809 E33.81577
G1 X128.885 Y148.216 E33.96711
G1 X126.210 Y148.394 E34.10610
G1 X123.767 Y148.394 E34.23274
G1 X120.855 Y148.191 E34.38408
G1 X118.436 Y147.851 E34.51072
G1 X115.811 Y147.301 E34.64971
G1 X113.232 Y146.570 E34.78871
G1 X110.488 Y145.572 E34.94004
G1 X108.042 Y144.474 E35.07904
G1 X105.885 Y143.327 E35.20568
G1 X103.409 Y141.780 E35.35702
G1 X101.433 Y140.344 E35.48366
G1 X99.374 Y138.627 E35.62265
G1 X97.439 Y136.770 E35.76165
G1 X95.486 Y134.600 E35.91298
G1 X93.982 Y132.675 E36.03962
G1 X92.475 Y130.457 E36.17861
G1 X91.016 Y127.929 E36.32995
G1 X89.945 Y125.733 E36.45659
G1 X88.933 Y123.250 E36.59559
G1 X88.030 Y120.474 E36.74693
G1 X87.439 Y118.103 E36.87357
G1 X86.996 Y115.636 E37.00351
G1 X86.932 Y115.228 E37.02491
G1 X86.677 Y112.798 E37.15155
G1 X86.575 Y109.881 E37.30289
G1 X86.660 Y107.439 E37.42953
G1 X86.932 Y104.772 E37.56852
G1 X87.390 Y102.130 E37.70751
G1 X88.096 Y99.297 E37.85886
G1 X88.851 Y96.974 E37.98550
G1 X89.848 Y94.485 E38.12448
G1 X91.127 Y91.861 E38.27582
G1 X92.475 Y89.543 E38.41482
G1 X93.841 Y87.517 E38.54146
G1 X95.600 Y85.263 E38.68969
G1 E38.08969 F900.00000
G92 E0
G1 X128.694 Y142.905 F9000.000
G1 E0.65000 F900.00000
G1 F960
G1 X128.541 Y143.193 E0.66689
G1 X128.339 Y143.434 E0.68319
G1 X128.155 Y143.588 E0.69565
G1 X127.883 Y143.746 E0.71195
G1 X127.573 Y143.846 E0.72885
G1 X127.249 Y143.880 E0.74574
G1 X126.925 Y143.846 E0.76264
G1 X126.615 Y143.746 E0.77954
G1 X126.342 Y143.588 E0.79584
G1 X126.158 Y143.434 E0.80830
G1 X125.956 Y143.193 E0.82460
G1 X125.803 Y142.905 E0.84149
G1 X125.716 Y142.603 E0.85779
G1 X125.691 Y142.364 E0.87024
G1 X125.713 Y142.050 E0.88654
G1 X125.803 Y141.737 E0.90344
G1 X125.951 Y141.459 E0.91975
G1 X126.099 Y141.270 E0.93220
G1 X126.332 Y141.060 E0.94849
G1 X126.615 Y140.897 E0.96539
G1 X126.924 Y140.796 E0.98226
G1 X127.231 Y140.763 E0.99826
G1 X127.476 Y140.779 E1.01098
G1 X127.782 Y140.856 E1.02734
G1 X128.075 Y140.999 E1.04424
G1 X128.324 Y141.193 E1.06061
G1 X128.487 Y141.376 E1.07331
G1 X128.650 Y141.638 E1.08932
G1 X128.762 Y141.944 E1.10619
G1 X128.807 Y142.267 E1.12309
G1 X128.784 Y142.592 E1.13999
G1 X128.711 Y142.848 E1.15378
G1 X128.307 Y142.749 F9000.000
G1 F960
G1 X128.195 Y142.959 E1.16614
G1 X128.044 Y143.139 E1.17829
G1 X127.916 Y143.247 E1.18698
G1 X127.713 Y143.364 E1.19913
G1 X127.486 Y143.437 E1.21150
G1 X127.249 Y143.462 E1.22387
G1 X127.012 Y143.437 E1.23624
G1 X126.785 Y143.364 E1.24860
G1 X126.582 Y143.247 E1.26075
G1 X126.453 Y143.139 E1.26944
G1 X126.303 Y142.959 E1.28159
G1 X126.191 Y142.749 E1.29396
G1 X126.126 Y142.523 E1.30611
G1 X126.108 Y142.357 E1.31479
G1 X126.125 Y142.123 E1.32694
G1 X126.191 Y141.893 E1.33931
G1 X126.301 Y141.687 E1.35146
G1 X126.404 Y141.555 E1.36015
G1 X126.578 Y141.398 E1.37229
G1 X126.785 Y141.278 E1.38466
G1 X127.011 Y141.205 E1.39702
G1 X127.239 Y141.180 E1.40892
G1 X127.411 Y141.192 E1.41785
G1 X127.639 Y141.249 E1.43002
G1 X127.854 Y141.353 E1.44238
G1 X128.039 Y141.498 E1.45456
G1 X128.153 Y141.626 E1.46349
G1 X128.275 Y141.821 E1.47538
G1 X128.356 Y142.045 E1.48774
G1 X128.389 Y142.281 E1.50011
G1 X128.373 Y142.519 E1.51248
G1 X128.324 Y142.691 E1.52174
G1 X128.307 Y142.749 F9000.000
G1 X129.273 Y140.811 F9000.000
G1 F960
G1 X129.107 Y140.728 E1.53136
G1 X128.854 Y140.541 E1.54767
G1 X128.638 Y140.297 E1.56457
G1 X128.483 Y140.023 E1.58086
G1 X128.403 Y139.797 E1.59332
G1 X128.351 Y139.487 E1.60961
G1 X128.365 Y139.161 E1.62651
G1 X128.447 Y138.845 E1.64341
G1 X128.587 Y138.564 E1.65972
G1 X128.730 Y138.371 E1.67217
G1 X128.958 Y138.154 E1.68847
G1 X129.236 Y137.984 E1.70537
G1 X129.543 Y137.875 E1.72223
G1 X129.849 Y137.835 E1.73824
G1 X130.094 Y137.844 E1.75095
G1 X130.402 Y137.913 E1.76731
G1 X130.699 Y138.048 E1.78422
G1 X130.961 Y138.242 E1.80112
G1 X131.170 Y138.478 E1.81747
G1 X131.297 Y138.688 E1.83018
G1 X131.410 Y138.975 E1.84620
G1 X131.463 Y139.296 E1.86306
G1 X131.449 Y139.622 E1.87996
G1 X131.370 Y139.927 E1.89632
G1 X131.268 Y140.150 E1.90904
G1 X131.092 Y140.404 E1.92504
G1 X130.856 Y140.628 E1.94191
G1 X130.578 Y140.799 E1.95881
G1 X130.271 Y140.907 E1.97570
G1 X129.948 Y140.950 E1.99260
G1 X129.623 Y140.924 E2.00950
G1 X129.327 Y140.837 E2.02551
G1 X129.458 Y140.439 F9000.000
G1 F960
G1 X129.324 Y140.372 E2.03325
G1 X129.136 Y140.233 E2.04540
G1 X128.978 Y140.054 E2.05778
G1 X128.863 Y139.850 E2.06992
G1 X128.807 Y139.692 E2.07861
G1 X128.768 Y139.461 E2.09075
G1 X128.778 Y139.223 E2.10312
G1 X128.838 Y138.992 E2.11550
G1 X128.943 Y138.782 E2.12765
G1 X129.042 Y138.647 E2.13633
G1 X129.212 Y138.486 E2.14848
G1 X129.416 Y138.361 E2.16085
G1 X129.640 Y138.282 E2.17321
G1 X129.868 Y138.251 E2.18510
G1 X130.040 Y138.258 E2.19403
G1 X130.269 Y138.309 E2.20620
G1 X130.486 Y138.408 E2.21857
G1 X130.678 Y138.550 E2.23094
G1 X130.834 Y138.726 E2.24311
G1 X130.923 Y138.873 E2.25204
G1 X131.007 Y139.087 E2.26393
G1 X131.046 Y139.322 E2.27629
G1 X131.036 Y139.560 E2.28866
G1 X130.977 Y139.787 E2.30083
G1 X130.905 Y139.944 E2.30976
G1 X130.775 Y140.133 E2.32166
G1 X130.602 Y140.297 E2.33401
G1 X130.398 Y140.421 E2.34638
G1 X130.174 Y140.501 E2.35875
G1 X129.937 Y140.532 E2.37112
G1 X129.699 Y140.513 E2.38349
G1 X129.514 Y140.459 E2.39347
G1 X129.342 Y140.532 F9000.000
G1 X131.180 Y137.573 F9000.000
G1 F960
G1 X130.919 Y137.367 E2.41072
G1 X130.721 Y137.122 E2.42702
G1 X130.573 Y136.832 E2.44392
G1 X130.492 Y136.528 E2.46021
G1 X130.471 Y136.289 E2.47267
G1 X130.498 Y135.976 E2.48896
G1 X130.590 Y135.675 E2.50526
G1 X130.699 Y135.461 E2.51773
G1 X130.888 Y135.210 E2.53402
G1 X131.134 Y134.996 E2.55092
G1 X131.419 Y134.838 E2.56782
G1 X131.731 Y134.743 E2.58468
G1 X132.038 Y134.715 E2.60070
G1 X132.283 Y134.736 E2.61341
G1 X132.587 Y134.818 E2.62977
G1 X132.878 Y134.966 E2.64666
G1 X133.122 Y135.163 E2.66296
G1 X133.280 Y135.345 E2.67541
G1 X133.442 Y135.614 E2.69172
G1 X133.548 Y135.922 E2.70861
G1 X133.588 Y136.246 E2.72551
G1 X133.559 Y136.571 E2.74241
G1 X133.464 Y136.882 E2.75931
G1 X133.311 Y137.158 E2.77566
G1 X133.156 Y137.349 E2.78839
G1 X132.922 Y137.551 E2.80439
G1 X132.638 Y137.708 E2.82126
G1 X132.326 Y137.804 E2.83816
G1 X132.001 Y137.832 E2.85505
G1 X131.678 Y137.792 E2.87194
G1 X131.370 Y137.686 E2.88884
G1 X131.232 Y137.603 E2.89719
G1 X131.394 Y137.216 F9000.000
G1 F960
G1 X131.219 Y137.077 E2.90880
G1 X131.071 Y136.895 E2.92095
G1 X130.963 Y136.682 E2.93332
G1 X130.902 Y136.456 E2.94547
G1 X130.888 Y136.289 E2.95416
G1 X130.908 Y136.055 E2.96630
G1 X130.977 Y135.831 E2.97846
G1 X131.053 Y135.682 E2.98714
G1 X131.194 Y135.495 E2.99929
G1 X131.374 Y135.338 E3.01166
G1 X131.583 Y135.223 E3.02403
G1 X131.811 Y135.153 E3.03639
G1 X132.039 Y135.132 E3.04829
G1 X132.211 Y135.147 E3.05721
G1 X132.438 Y135.208 E3.06938
G1 X132.650 Y135.316 E3.08175
G1 X132.832 Y135.463 E3.09390
G1 X132.942 Y135.590 E3.10258
G1 X133.063 Y135.791 E3.11473
G1 X133.141 Y136.016 E3.12710
G1 X133.170 Y136.253 E3.13947
G1 X133.149 Y136.491 E3.15184
G1 X133.079 Y136.719 E3.16421
G1 X132.965 Y136.924 E3.17638
G1 X132.856 Y137.058 E3.18531
G1 X132.683 Y137.208 E3.19721
G1 X132.475 Y137.324 E3.20956
G1 X132.246 Y137.393 E3.22193
G1 X132.009 Y137.414 E3.23430
G1 X131.772 Y137.385 E3.24667
G1 X131.546 Y137.308 E3.25903
G1 X131.446 Y137.247 E3.26512
G1 X131.345 Y137.246 F9000.000
G1 E2.66512 F900.00000
G92 E0
G1 X137.447 Y138.790 F9000.000
G1 E0.65000 F900.00000
G1 F960
G1 X137.567 Y138.500 E0.66630
G1 X137.752 Y138.231 E0.68319
G1 X137.988 Y138.007 E0.70009
G1 X138.266 Y137.836 E0.71699
G1 X138.573 Y137.728 E0.73386
G1 X138.879 Y137.687 E0.74986
G1 X139.124 Y137.697 E0.76257
G1 X139.432 Y137.765 E0.77894
G1 X139.728 Y137.900 E0.79583
G1 X139.991 Y138.094 E0.81273
G1 X140.199 Y138.330 E0.82903
G1 X140.325 Y138.535 E0.84150
G1 X140.440 Y138.827 E0.85778
G1 X140.494 Y139.148 E0.87468
G1 X140.479 Y139.474 E0.89158
G1 X140.398 Y139.790 E0.90849
G1 X140.252 Y140.082 E0.92538
G1 X140.049 Y140.337 E0.94227
G1 X139.807 Y140.537 E0.95858
G1 X139.598 Y140.655 E0.97104
G1 X139.301 Y140.760 E0.98732
G1 X138.978 Y140.803 E1.00423
G1 X138.653 Y140.777 E1.02113
G1 X138.341 Y140.684 E1.03803
