; generated by Slic3r 1.3.1-dev on 2019-08-11 at 10:13:13

; Print Config Notes: 
; DMF_3D_0.2mm353HC30%PETG
; Slower for PETG
; 
; Filament notes: 
; DMF_3D_1.75x1.00NatPETG250 B95
; 
; external perimeters extrusion width = 0.40mm (1.43mm^3/s)
; perimeters extrusion width = 0.50mm (2.74mm^3/s)
; infill extrusion width = 0.44mm (3.18mm^3/s)
; solid infill extrusion width = 0.40mm (2.86mm^3/s)
; top infill extrusion width = 0.40mm (2.86mm^3/s)

M190 S95 ; set bed temperature and wait for it to be reached
M104 S250 ; set temperature
G28 ; home all axes
; Filament gcode

M109 S250 ; set temperature and wait for it to be reached
G21 ; set units to millimeters
G90 ; use absolute coordinates
M82 ; use absolute distances for extrusion
G92 E0
G1 Z0.300 F9000.000
G1 E-0.60000 F900.00000
G92 E0
G1 X85.212 Y84.782 F9000.000
G1 E0.65000 F900.00000
G1 F1920
G1 X85.834 Y84.222 E0.69335
G1 X86.572 Y83.693 E0.74044
G1 X101.106 Y74.494 E1.63210
G1 X103.662 Y72.908 E1.78804
G1 X106.057 Y71.635 E1.92862
G1 X121.291 Y63.648 E2.82028
G1 X121.892 Y63.365 E2.85471
G1 X122.396 Y63.172 E2.88271
G1 X122.914 Y63.015 E2.91074
G1 X123.441 Y62.894 E2.93879
G1 X123.974 Y62.811 E2.96675
G1 X124.514 Y62.764 E2.99486
G1 X125.053 Y62.756 E3.02282
G1 X125.595 Y62.785 E3.05095
G1 X126.371 Y62.894 E3.09155
G1 X126.898 Y63.015 E3.11960
G1 X127.416 Y63.172 E3.14763
G1 X127.920 Y63.365 E3.17563
G1 X128.521 Y63.648 E3.21007
G1 X143.755 Y71.635 E4.10173
G1 X146.407 Y73.057 E4.25768
G1 X148.706 Y74.494 E4.39826
G1 X163.240 Y83.693 E5.28992
G1 X163.786 Y84.072 E5.32435
G1 X164.206 Y84.413 E5.35243
G1 X164.770 Y84.958 E5.39303
G1 X165.126 Y85.367 E5.42116
G1 X165.451 Y85.796 E5.44907
G1 X165.747 Y86.250 E5.47716
G1 X166.009 Y86.722 E5.50514
G1 X166.350 Y87.485 E5.54848
G1 X166.525 Y87.999 E5.57660
G1 X166.715 Y88.759 E5.61722
G1 X166.821 Y89.465 E5.65425
G1 X167.809 Y99.434 E6.17353
G1 X167.840 Y100.142 E6.21027
G1 X167.650 Y110.148 E6.72908
G1 X167.556 Y112.859 E6.86966
G1 X166.848 Y130.169 E7.76777
G1 X166.766 Y130.950 E7.80845
G1 X166.664 Y131.482 E7.83653
G1 X166.525 Y132.002 E7.86446
G1 X166.349 Y132.516 E7.89259
G1 X166.140 Y133.012 E7.92050
G1 X165.747 Y133.751 E7.96390
G1 X165.307 Y134.402 E8.00465
G1 X164.770 Y135.042 E8.04796
G1 X164.206 Y135.587 E8.08857
G1 X163.545 Y136.103 E8.13204
G1 X148.706 Y145.506 E9.04272
G1 X146.407 Y146.943 E9.18330
G1 X143.755 Y148.365 E9.33925
G1 X128.521 Y156.352 E10.23091
G1 X127.921 Y156.635 E10.26531
G1 X127.416 Y156.828 E10.29335
G1 X126.898 Y156.985 E10.32137
G1 X126.371 Y157.106 E10.34943
G1 X125.838 Y157.189 E10.37737
G1 X125.298 Y157.236 E10.40549
G1 X124.759 Y157.244 E10.43345
G1 X124.217 Y157.215 E10.46158
G1 X123.441 Y157.106 E10.50217
G1 X122.914 Y156.985 E10.53023
G1 X122.397 Y156.828 E10.55825
G1 X121.892 Y156.635 E10.58626
G1 X121.291 Y156.352 E10.62070
G1 X106.057 Y148.365 E11.51236
G1 X103.405 Y146.943 E11.66830
G1 X101.106 Y145.506 E11.80888
G1 X86.572 Y136.307 E12.70054
G1 X86.026 Y135.928 E12.73497
G1 X85.606 Y135.587 E12.76305
G1 X85.042 Y135.042 E12.80366
G1 X84.686 Y134.634 E12.83175
G1 X84.361 Y134.204 E12.85970
G1 X84.066 Y133.751 E12.88773
G1 X83.803 Y133.278 E12.91577
G1 X83.463 Y132.515 E12.95910
G1 X83.287 Y132.001 E12.98723
G1 X83.148 Y131.480 E13.01520
G1 X83.046 Y130.949 E13.04324
G1 X82.957 Y130.045 E13.09031
G1 X82.257 Y112.859 E13.98197
G1 X82.162 Y110.148 E14.12256
G1 X82.257 Y107.141 E14.27850
G1 X82.957 Y89.955 E15.17015
G1 X83.012 Y89.293 E15.20457
G1 X83.097 Y88.759 E15.23263
G1 X83.283 Y88.010 E15.27261
G1 X83.463 Y87.485 E15.30138
G1 X83.672 Y86.989 E15.32929
G1 X83.917 Y86.506 E15.35737
G1 X84.361 Y85.796 E15.40077
G1 X84.686 Y85.366 E15.42872
G1 X85.170 Y84.825 E15.46636
G1 X85.511 Y85.071 F9000.000
G1 F1920
G1 X86.089 Y84.550 E15.50671
G1 X86.794 Y84.045 E15.55166
G1 X101.328 Y74.845 E16.44332
G1 X103.857 Y73.275 E16.59763
G1 X106.250 Y72.003 E16.73809
G1 X121.484 Y64.016 E17.62975
G1 X122.047 Y63.750 E17.66205
G1 X122.525 Y63.568 E17.68855
G1 X123.014 Y63.418 E17.71508
G1 X123.513 Y63.303 E17.74162
G1 X124.017 Y63.224 E17.76809
G1 X124.529 Y63.180 E17.79468
G1 X125.283 Y63.180 E17.83381
G1 X125.795 Y63.224 E17.86041
G1 X126.560 Y63.359 E17.90072
G1 X127.055 Y63.492 E17.92726
G1 X127.538 Y63.659 E17.95376
G1 X128.009 Y63.859 E17.98030
G1 X143.562 Y72.003 E18.89039
G1 X146.186 Y73.409 E19.04471
G1 X148.484 Y74.845 E19.18516
G1 X163.018 Y84.045 E20.07682
G1 X163.530 Y84.399 E20.10912
G1 X163.928 Y84.722 E20.13569
G1 X164.471 Y85.246 E20.17480
G1 X164.808 Y85.634 E20.20142
G1 X165.115 Y86.040 E20.22783
G1 X165.395 Y86.470 E20.25441
G1 X165.643 Y86.917 E20.28090
G1 X165.959 Y87.628 E20.32123
G1 X166.126 Y88.113 E20.34784
G1 X166.308 Y88.845 E20.38696
G1 X166.407 Y89.506 E20.42160
G1 X167.396 Y99.475 E20.94089
G1 X167.425 Y100.134 E20.97510
G1 X167.235 Y110.134 E21.49356
G1 X167.140 Y112.842 E21.63401
G1 X166.434 Y130.140 E22.53149
G1 X166.355 Y130.892 E22.57067
G1 X166.257 Y131.395 E22.59724
G1 X166.126 Y131.888 E22.62368
G1 X165.959 Y132.373 E22.65029
G1 X165.760 Y132.843 E22.67671
G1 X165.394 Y133.531 E22.71710
G1 X164.971 Y134.158 E22.75634
G1 X164.471 Y134.754 E22.79665
G1 X163.928 Y135.278 E22.83576
G1 X163.313 Y135.758 E22.87622
G1 X148.484 Y145.155 E23.78628
G1 X146.186 Y146.591 E23.92673
G1 X143.562 Y147.997 E24.08105
G1 X128.328 Y155.984 E24.97271
G1 X127.765 Y156.250 E25.00498
G1 X127.287 Y156.433 E25.03152
G1 X126.798 Y156.582 E25.05804
G1 X126.299 Y156.697 E25.08459
G1 X125.795 Y156.776 E25.11104
G1 X125.283 Y156.820 E25.13764
G1 X124.529 Y156.820 E25.17677
G1 X124.017 Y156.776 E25.20337
G1 X123.514 Y156.697 E25.22981
G1 X123.014 Y156.582 E25.25637
G1 X122.525 Y156.433 E25.28288
G1 X121.804 Y156.141 E25.32320
G1 X106.250 Y147.997 E26.23335
G1 X103.626 Y146.591 E26.38767
G1 X101.328 Y145.155 E26.52812
G1 X86.794 Y135.955 E27.41978
G1 X86.282 Y135.601 E27.45208
G1 X85.884 Y135.278 E27.47864
G1 X85.341 Y134.754 E27.51776
G1 X85.005 Y134.367 E27.54434
G1 X84.697 Y133.960 E27.57079
G1 X84.418 Y133.531 E27.59732
G1 X84.170 Y133.083 E27.62386
G1 X83.853 Y132.372 E27.66418
G1 X83.686 Y131.887 E27.69080
G1 X83.555 Y131.394 E27.71727
G1 X83.457 Y130.891 E27.74381
G1 X83.372 Y130.028 E27.78875
G1 X82.672 Y112.842 E28.68041
G1 X82.577 Y110.134 E28.82087
G1 X82.672 Y107.158 E28.97518
G1 X83.372 Y89.972 E29.86684
G1 X83.423 Y89.351 E29.89913
G1 X83.504 Y88.845 E29.92567
G1 X83.686 Y88.113 E29.96481
G1 X83.853 Y87.628 E29.99141
G1 X84.052 Y87.158 E30.01783
G1 X84.284 Y86.701 E30.04441
G1 X84.697 Y86.040 E30.08480
G1 X85.005 Y85.633 E30.11125
G1 X85.469 Y85.114 E30.14738
G1 X85.810 Y85.359 F9000.000
G1 F1920
G1 X86.345 Y84.877 E30.18473
G1 X87.017 Y84.396 E30.22755
G1 X101.550 Y75.196 E31.11921
G1 X104.052 Y73.642 E31.27189
G1 X106.443 Y72.371 E31.41223
G1 X121.677 Y64.385 E32.30389
G1 X122.203 Y64.136 E32.33406
G1 X122.653 Y63.963 E32.35905
G1 X123.115 Y63.822 E32.38408
G1 X123.585 Y63.713 E32.40911
G1 X124.061 Y63.637 E32.43408
G1 X124.543 Y63.595 E32.45917
G1 X125.269 Y63.595 E32.49680
G1 X125.751 Y63.637 E32.52188
G1 X126.460 Y63.762 E32.55919
G1 X126.926 Y63.887 E32.58423
G1 X127.382 Y64.044 E32.60923
G1 X127.827 Y64.233 E32.63426
G1 X143.369 Y72.371 E33.54373
G1 X145.966 Y73.761 E33.69642
G1 X148.262 Y75.196 E33.83675
G1 X162.796 Y84.396 E34.72840
G1 X163.274 Y84.727 E34.75857
G1 X163.650 Y85.031 E34.78363
G1 X164.172 Y85.535 E34.82124
G1 X164.489 Y85.901 E34.84635
G1 X164.779 Y86.285 E34.87127
G1 X165.042 Y86.690 E34.89634
G1 X165.276 Y87.112 E34.92133
G1 X165.568 Y87.770 E34.95866
G1 X165.726 Y88.228 E34.98376
G1 X165.902 Y88.932 E35.02138
G1 X165.994 Y89.547 E35.05364
G1 X166.982 Y99.516 E35.57292
G1 X167.009 Y100.126 E35.60460
G1 X166.820 Y110.119 E36.12271
G1 X166.725 Y112.825 E36.26304
G1 X166.019 Y130.111 E37.15989
G1 X165.943 Y130.834 E37.19756
G1 X165.851 Y131.308 E37.22263
G1 X165.726 Y131.773 E37.24757
G1 X165.568 Y132.231 E37.27267
G1 X165.380 Y132.674 E37.29760
G1 X165.042 Y133.310 E37.33498
G1 X164.635 Y133.914 E37.37271
G1 X164.172 Y134.465 E37.41002
G1 X163.650 Y134.969 E37.44763
G1 X163.081 Y135.414 E37.48507
G1 X148.262 Y144.804 E38.39451
G1 X145.966 Y146.239 E38.53484
G1 X143.369 Y147.629 E38.68753
G1 X128.135 Y155.615 E39.57919
G1 X127.609 Y155.864 E39.60934
G1 X127.159 Y156.037 E39.63436
G1 X126.697 Y156.179 E39.65938
G1 X126.227 Y156.287 E39.68442
G1 X125.751 Y156.363 E39.70938
G1 X125.269 Y156.405 E39.73447
G1 X124.543 Y156.405 E39.77210
G1 X124.061 Y156.363 E39.79719
G1 X123.586 Y156.287 E39.82214
G1 X123.115 Y156.178 E39.84719
G1 X122.653 Y156.037 E39.87220
G1 X121.986 Y155.768 E39.90951
G1 X106.443 Y147.629 E40.81903
G1 X103.846 Y146.239 E40.97172
G1 X101.550 Y144.804 E41.11205
G1 X87.017 Y135.604 E42.00371
G1 X86.538 Y135.273 E42.03387
G1 X86.162 Y134.969 E42.05893
G1 X85.640 Y134.465 E42.09655
G1 X85.323 Y134.100 E42.12162
G1 X85.033 Y133.715 E42.14658
G1 X84.771 Y133.310 E42.17160
G1 X84.536 Y132.888 E42.19663
G1 X84.244 Y132.230 E42.23396
G1 X84.086 Y131.772 E42.25906
G1 X83.961 Y131.307 E42.28403
G1 X83.869 Y130.833 E42.30906
G1 X83.787 Y130.011 E42.35188
G1 X83.087 Y112.825 E43.24354
G1 X82.993 Y110.119 E43.38387
G1 X83.086 Y107.195 E43.53553
G1 X83.787 Y89.989 E44.42821
G1 X83.835 Y89.409 E44.45838
G1 X83.910 Y88.932 E44.48341
G1 X84.082 Y88.239 E44.52040
G1 X84.244 Y87.770 E44.54614
G1 X84.432 Y87.327 E44.57107
G1 X84.651 Y86.896 E44.59614
G1 X85.033 Y86.285 E44.63352
G1 X85.323 Y85.900 E44.65847
G1 X85.768 Y85.403 E44.69309
G1 E44.09309 F900.00000
G92 E0
G1 X127.368 Y149.500 F9000.000
G1 E0.65000 F900.00000
G1 F960
G1 X127.284 Y150.137 E0.68331
G1 X127.038 Y150.731 E0.71662
G1 X126.647 Y151.240 E0.74993
G1 X126.137 Y151.632 E0.78324
G1 X125.569 Y151.867 E0.81512
G1 X124.910 Y151.962 E0.84961
G1 X124.269 Y151.878 E0.88313
G1 X123.675 Y151.632 E0.91644
G1 X123.166 Y151.240 E0.94975
G1 X122.774 Y150.731 E0.98306
G1 X122.528 Y150.137 E1.01637
G1 X122.445 Y149.500 E1.04968
G1 X122.528 Y148.863 E1.08299
G1 X122.774 Y148.269 E1.11630
G1 X123.166 Y147.759 E1.14961
G1 X123.675 Y147.368 E1.18292
G1 X124.269 Y147.122 E1.21623
G1 X124.879 Y147.042 E1.24811
G1 X125.539 Y147.121 E1.28260
G1 X126.137 Y147.368 E1.31612
G1 X126.647 Y147.759 E1.34943
G1 X127.038 Y148.269 E1.38274
G1 X127.284 Y148.863 E1.41605
G1 X127.360 Y149.441 E1.44625
G1 X126.948 Y149.500 F9000.000
G1 F960
G1 X126.879 Y150.029 E1.47389
G1 X126.675 Y150.521 E1.50153
G1 X126.350 Y150.944 E1.52916
G1 X125.927 Y151.269 E1.55680
G1 X125.458 Y151.463 E1.58314
G1 X124.908 Y151.542 E1.61196
G1 X124.377 Y151.473 E1.63967
G1 X123.885 Y151.269 E1.66731
G1 X123.462 Y150.944 E1.69495
G1 X123.137 Y150.521 E1.72258
G1 X122.933 Y150.029 E1.75022
G1 X122.864 Y149.500 E1.77786
G1 X122.933 Y148.971 E1.80549
G1 X123.137 Y148.479 E1.83313
G1 X123.462 Y148.056 E1.86077
G1 X123.885 Y147.731 E1.88840
G1 X124.377 Y147.527 E1.91604
G1 X124.881 Y147.461 E1.94238
G1 X125.433 Y147.527 E1.97120
G1 X125.927 Y147.731 E1.99891
G1 X126.350 Y148.056 E2.02655
G1 X126.675 Y148.479 E2.05419
G1 X126.879 Y148.971 E2.08183
G1 X126.940 Y149.441 E2.10635
G1 X126.948 Y149.500 F9000.000
G1 E1.50635 F900.00000
G92 E0
G1 X121.971 Y147.291 F9000.000
G1 E0.65000 F900.00000
G1 F1440
G1 X120.994 Y147.223 E0.70077
G1 X118.407 Y146.859 E0.83619
G1 X115.851 Y146.316 E0.97161
G1 X113.340 Y145.596 E1.10704
G1 X110.885 Y144.703 E1.24247
G1 X108.499 Y143.640 E1.37789
G1 X106.192 Y142.414 E1.51331
G1 X103.977 Y141.029 E1.64874
G1 X101.863 Y139.494 E1.78417
G1 X99.862 Y137.815 E1.91959
G1 X97.983 Y136.000 E2.05501
G1 X96.234 Y134.058 E2.19044
G1 X94.626 Y132.000 E2.32586
G1 X94.079 Y131.188 E2.37662
G1 X93.192 Y131.481 E2.42505
G1 X93.085 Y131.331 E2.43459
G1 X93.193 Y131.190 E2.44376
G1 X93.481 Y130.496 E2.48275
G1 X93.572 Y129.800 E2.51910
G1 X94.914 Y131.790 E2.64352
G1 X96.507 Y133.829 E2.77766
G1 X98.239 Y135.752 E2.91180
G1 X100.100 Y137.550 E3.04593
G1 X102.082 Y139.213 E3.18007
G1 X104.176 Y140.734 E3.31421
G1 X106.370 Y142.105 E3.44834
G1 X108.655 Y143.320 E3.58247
G1 X111.019 Y144.372 E3.71661
G1 X113.450 Y145.257 E3.85075
G1 X115.938 Y145.971 E3.98488
G1 X118.469 Y146.509 E4.11902
G1 X121.031 Y146.869 E4.25315
G1 X123.425 Y147.036 E4.37757
G1 X122.869 Y147.463 E4.41392
G1 X122.411 Y148.060 E4.45290
G1 X122.344 Y148.223 E4.46207
G1 X122.160 Y148.206 E4.47162
G1 X121.983 Y147.350 E4.51693
G1 E3.91693 F900.00000
G92 E0
G1 X92.830 Y130.981 F9000.000
G1 E0.65000 F900.00000
G1 F960
G1 X92.439 Y131.490 E0.68331
G1 X91.929 Y131.882 E0.71661
G1 X91.335 Y132.128 E0.74993
G1 X90.698 Y132.211 E0.78324
G1 X90.061 Y132.128 E0.81654
G1 X89.467 Y131.882 E0.84986
G1 X88.958 Y131.490 E0.88317
G1 X88.566 Y130.981 E0.91647
G1 X88.320 Y130.387 E0.94979
G1 X88.237 Y129.750 E0.98310
G1 X88.320 Y129.113 E1.01640
G1 X88.566 Y128.519 E1.04972
G1 X88.958 Y128.010 E1.08303
G1 X89.467 Y127.618 E1.11633
G1 X90.061 Y127.372 E1.14965
G1 X90.671 Y127.292 E1.18152
G1 X91.331 Y127.371 E1.21601
G1 X91.929 Y127.618 E1.24954
G1 X92.439 Y128.010 E1.28285
G1 X92.830 Y128.519 E1.31615
G1 X93.076 Y129.113 E1.34947
G1 X93.160 Y129.750 E1.38278
G1 X93.076 Y130.387 E1.41609
G1 X92.853 Y130.925 E1.44629
G1 X92.467 Y130.771 F9000.000
G1 F960
G1 X92.142 Y131.194 E1.47393
G1 X91.719 Y131.519 E1.50156
G1 X91.227 Y131.723 E1.52920
G1 X90.698 Y131.792 E1.55684
G1 X90.169 Y131.723 E1.58447
G1 X89.677 Y131.519 E1.61211
G1 X89.254 Y131.194 E1.63975
G1 X88.929 Y130.771 E1.66738
G1 X88.725 Y130.279 E1.69502
G1 X88.656 Y129.750 E1.72266
G1 X88.725 Y129.221 E1.75029
G1 X88.929 Y128.729 E1.77793
G1 X89.254 Y128.306 E1.80557
G1 X89.677 Y127.981 E1.83320
G1 X90.169 Y127.777 E1.86084
G1 X90.673 Y127.711 E1.88718
G1 X91.225 Y127.777 E1.91600
G1 X91.719 Y127.981 E1.94372
G1 X92.142 Y128.306 E1.97135
G1 X92.467 Y128.729 E1.99899
G1 X92.671 Y129.221 E2.02663
G1 X92.740 Y129.750 E2.05426
G1 X92.671 Y130.279 E2.08190
G1 X92.490 Y130.716 E2.10643
G1 X92.467 Y130.771 F9000.000
G1 E1.50643 F900.00000
G92 E0
G1 X91.143 Y126.103 F9000.000
G1 E0.65000 F900.00000
G1 F1440
G1 X90.714 Y125.223 E0.70077
G1 X89.735 Y122.801 E0.83619
G1 X88.928 Y120.317 E0.97161
G1 X88.296 Y117.782 E1.10704
G1 X87.842 Y115.209 E1.24246
G1 X87.583 Y112.743 E1.37101
G1 X87.478 Y109.998 E1.51339
G1 X87.569 Y107.389 E1.64872
G1 X87.842 Y104.791 E1.78414
G1 X88.296 Y102.218 E1.91957
G1 X88.928 Y99.683 E2.05499
G1 X89.735 Y97.199 E2.19042
G1 X90.714 Y94.777 E2.32584
G1 X91.143 Y93.897 E2.37661
G1 X90.446 Y93.275 E2.42503
G1 X90.523 Y93.108 E2.43458
G1 X90.698 Y93.131 E2.44375
G1 X91.444 Y93.033 E2.48273
G1 X92.091 Y92.764 E2.51908
G1 X91.039 Y94.922 E2.64351
G1 X90.070 Y97.321 E2.77764
G1 X89.310 Y99.660 E2.90517
G1 X88.645 Y102.291 E3.04581
G1 X88.195 Y104.841 E3.18004
G1 X87.924 Y107.414 E3.31417
G1 X87.834 Y110.000 E3.44831
G1 X87.924 Y112.586 E3.58244
G1 X88.195 Y115.159 E3.71658
G1 X88.644 Y117.708 E3.85072
G1 X89.270 Y120.218 E3.98485
G1 X90.070 Y122.679 E4.11899
G1 X91.039 Y125.078 E4.25312
G1 X92.091 Y127.236 E4.37755
G1 X91.437 Y126.965 E4.41424
G1 X90.668 Y126.873 E4.45440
G1 X90.523 Y126.892 E4.46201
G1 X90.446 Y126.725 E4.47156
G1 X91.098 Y126.143 E4.51687
G1 E3.91687 F900.00000
G92 E0
G1 X90.698 Y92.711 F9000.000
G1 E0.65000 F900.00000
G1 F960
G1 X90.061 Y92.628 E0.68331
G1 X89.467 Y92.382 E0.71662
G1 X88.958 Y91.990 E0.74993
G1 X88.566 Y91.481 E0.78324
G1 X88.320 Y90.887 E0.81655
G1 X88.237 Y90.250 E0.84986
G1 X88.320 Y89.613 E0.88317
G1 X88.566 Y89.019 E0.91648
G1 X88.958 Y88.510 E0.94979
G1 X89.467 Y88.118 E0.98310
G1 X90.061 Y87.872 E1.01641
G1 X90.671 Y87.792 E1.04829
G1 X91.331 Y87.871 E1.08278
G1 X91.929 Y88.118 E1.11630
G1 X92.439 Y88.510 E1.14961
G1 X92.830 Y89.019 E1.18292
G1 X93.076 Y89.613 E1.21623
G1 X93.160 Y90.250 E1.24954
G1 X93.076 Y90.887 E1.28285
G1 X92.830 Y91.481 E1.31616
G1 X92.439 Y91.990 E1.34947
G1 X91.929 Y92.382 E1.38278
G1 X91.335 Y92.628 E1.41609
G1 X90.758 Y92.704 E1.44629
G1 X90.698 Y92.292 F9000.000
G1 F960
G1 X90.169 Y92.223 E1.47393
G1 X89.677 Y92.019 E1.50157
G1 X89.254 Y91.694 E1.52920
G1 X88.929 Y91.271 E1.55684
G1 X88.725 Y90.779 E1.58448
G1 X88.656 Y90.250 E1.61211
G1 X88.725 Y89.721 E1.63975
G1 X88.929 Y89.229 E1.66739
G1 X89.254 Y88.806 E1.69502
