; generated by Slic3r 1.3.1-dev on 2019-08-06 at 16:49:14

; Print Config Notes: 
; DMF_3D_0.2mm354HC30%PETG
; Slower for PETG
; 
; Filament notes: 
; DMF_3D_1.75x1.00NatPETG250 B95
; 
; external perimeters extrusion width = 0.40mm (1.43mm^3/s)
; perimeters extrusion width = 0.50mm (2.74mm^3/s)
; infill extrusion width = 0.44mm (3.18mm^3/s)
; solid infill extrusion width = 0.40mm (2.86mm^3/s)
; top infill extrusion width = 0.40mm (2.86mm^3/s)

M190 S95 ; set bed temperature and wait for it to be reached
M104 S250 ; set temperature
G28 ; home all axes
; Filament gcode

M109 S250 ; set temperature and wait for it to be reached
G21 ; set units to millimeters
G90 ; use absolute coordinates
M82 ; use absolute distances for extrusion
G92 E0
G1 Z0.300 F9000.000
G1 E-0.60000 F900.00000
G92 E0
G1 X95.032 Y84.661 F9000.000
G1 E0.65000 F900.00000
G1 F1920
G1 X96.667 Y82.845 E0.77664
G1 X98.630 Y80.935 E0.91862
G1 X100.956 Y78.984 E1.07598
G1 X102.932 Y77.548 E1.20262
G1 X105.250 Y76.088 E1.34462
G1 X107.663 Y74.792 E1.48662
G1 X110.436 Y73.558 E1.64396
G1 X113.014 Y72.631 E1.78596
G1 X115.362 Y71.957 E1.91260
G1 X118.039 Y71.378 E2.05461
G1 X121.045 Y70.955 E2.21196
G1 X123.779 Y70.774 E2.35395
G1 X133.905 Y70.807 E2.87890
G1 X134.312 Y70.822 E2.90003
G1 X134.688 Y70.864 E2.91960
G1 X135.126 Y70.947 E2.94273
G1 X135.492 Y71.046 E2.96241
G1 X136.112 Y71.281 E2.99678
G1 X136.447 Y71.447 E3.01615
G1 X144.750 Y76.088 E3.50924
G1 X147.068 Y77.548 E3.65123
G1 X149.044 Y78.984 E3.77787
G1 X151.149 Y80.737 E3.91987
G1 X153.127 Y82.632 E4.06188
G1 X154.968 Y84.661 E4.20386
G1 X156.662 Y86.813 E4.34587
G1 X158.202 Y89.078 E4.48786
G1 X159.610 Y91.497 E4.63293
G1 X163.553 Y98.552 E5.05190
G1 X163.832 Y99.159 E5.08654
G1 X163.976 Y99.582 E5.10970
G1 X164.125 Y100.237 E5.14450
G1 X164.178 Y100.687 E5.16803
G1 X164.247 Y109.974 E5.64946
G1 X164.138 Y112.885 E5.80046
G1 X163.842 Y115.608 E5.94246
G1 X163.418 Y118.014 E6.06911
G1 X162.765 Y120.675 E6.21110
G1 X161.928 Y123.283 E6.35311
G1 X160.912 Y125.827 E6.49509
G1 X159.581 Y128.555 E6.65245
G1 X158.360 Y130.671 E6.77909
G1 X156.836 Y132.947 E6.92109
G1 X154.968 Y135.339 E7.07844
G1 X153.127 Y137.368 E7.22043
G1 X151.370 Y139.065 E7.34707
G1 X149.278 Y140.834 E7.48907
G1 X146.822 Y142.618 E7.64642
G1 X144.750 Y143.912 E7.77307
G1 X142.337 Y145.208 E7.91506
G1 X139.564 Y146.442 E8.07241
G1 X136.986 Y147.369 E8.21440
G1 X134.638 Y148.043 E8.34105
G1 X131.669 Y148.674 E8.49840
G1 X128.955 Y149.045 E8.64040
G1 X126.221 Y149.226 E8.78240
G1 X123.482 Y149.215 E8.92439
G1 X121.045 Y149.045 E9.05103
G1 X118.039 Y148.622 E9.20839
G1 X115.362 Y148.043 E9.35038
G1 X113.014 Y147.369 E9.47703
G1 X110.162 Y146.331 E9.63437
G1 X107.663 Y145.208 E9.77637
G1 X105.506 Y144.061 E9.90302
G1 X102.932 Y142.452 E10.06037
G1 X100.956 Y141.016 E10.18701
G1 X98.851 Y139.263 E10.32900
G1 X96.873 Y137.368 E10.47101
G1 X94.842 Y135.112 E10.62836
G1 X93.338 Y133.187 E10.75500
G1 X91.798 Y130.922 E10.89699
G1 X90.280 Y128.293 E11.05435
G1 X89.209 Y126.097 E11.18099
G1 X88.173 Y123.562 E11.32299
G1 X87.235 Y120.675 E11.48034
G1 X86.644 Y118.304 E11.60698
G1 X86.189 Y115.780 E11.73993
G1 X86.117 Y115.315 E11.76434
G1 X85.862 Y112.885 E11.89098
G1 X85.756 Y109.852 E12.04833
G1 X85.841 Y107.410 E12.17497
G1 X86.117 Y104.685 E12.31696
G1 X86.582 Y101.986 E12.45896
G1 X87.317 Y99.040 E12.61632
G1 X88.072 Y96.717 E12.74296
G1 X89.088 Y94.173 E12.88495
G1 X90.419 Y91.445 E13.04230
G1 X91.640 Y89.329 E13.16894
G1 X93.164 Y87.053 E13.31094
G1 X94.994 Y84.707 E13.46519
G1 X95.341 Y84.939 F9000.000
G1 F1920
G1 X97.162 Y82.931 E13.60567
G1 X98.919 Y81.234 E13.73231
G1 X100.989 Y79.485 E13.87281
G1 X103.398 Y77.735 E14.02716
G1 X105.470 Y76.440 E14.15380
G1 X107.858 Y75.159 E14.29429
G1 X110.578 Y73.948 E14.44863
G1 X112.874 Y73.113 E14.57527
G1 X115.477 Y72.357 E14.71577
G1 X118.126 Y71.784 E14.85627
G1 X121.074 Y71.370 E15.01062
G1 X123.779 Y71.190 E15.15111
G1 X133.903 Y71.222 E15.67596
G1 X134.278 Y71.236 E15.69541
G1 X134.624 Y71.275 E15.71346
G1 X135.034 Y71.352 E15.73510
G1 X135.372 Y71.444 E15.75325
G1 X135.939 Y71.659 E15.78464
G1 X136.247 Y71.811 E15.80250
G1 X144.530 Y76.440 E16.29436
G1 X146.602 Y77.735 E16.42101
G1 X148.800 Y79.320 E16.56150
G1 X150.882 Y81.055 E16.70199
G1 X152.838 Y82.931 E16.84249
G1 X154.659 Y84.939 E16.98297
G1 X156.335 Y87.069 E17.12348
G1 X157.858 Y89.310 E17.26397
G1 X159.248 Y91.699 E17.40723
G1 X163.188 Y98.752 E17.82603
G1 X163.444 Y99.306 E17.85767
G1 X163.578 Y99.702 E17.87934
G1 X163.714 Y100.300 E17.91113
G1 X163.764 Y100.722 E17.93313
G1 X163.831 Y109.977 E18.41292
G1 X163.725 Y112.842 E18.56154
G1 X163.432 Y115.536 E18.70204
G1 X163.008 Y117.942 E18.82868
G1 X162.362 Y120.574 E18.96917
G1 X161.533 Y123.155 E19.10967
G1 X160.526 Y125.671 E19.25016
G1 X159.221 Y128.347 E19.40451
G1 X158.000 Y130.463 E19.53115
G1 X156.492 Y132.715 E19.67164
G1 X154.659 Y135.061 E19.82599
G1 X153.024 Y136.877 E19.95263
G1 X151.081 Y138.766 E20.09312
G1 X149.011 Y140.515 E20.23361
G1 X146.602 Y142.265 E20.38796
G1 X144.530 Y143.560 E20.51460
G1 X142.142 Y144.841 E20.65509
G1 X139.422 Y146.052 E20.80944
G1 X136.872 Y146.970 E20.94993
G1 X134.523 Y147.643 E21.07658
G1 X131.611 Y148.262 E21.23092
G1 X128.926 Y148.630 E21.37142
G1 X126.489 Y148.801 E21.49806
G1 X123.779 Y148.810 E21.63855
G1 X120.808 Y148.602 E21.79290
G1 X118.389 Y148.262 E21.91954
G1 X115.736 Y147.708 E22.06003
G1 X113.128 Y146.970 E22.20053
G1 X110.331 Y145.951 E22.35487
G1 X107.858 Y144.841 E22.49537
G1 X105.701 Y143.694 E22.62201
G1 X103.176 Y142.116 E22.77635
G1 X101.200 Y140.680 E22.90299
G1 X99.118 Y138.945 E23.04349
G1 X97.162 Y137.069 E23.18399
G1 X95.169 Y134.856 E23.33833
G1 X93.665 Y132.931 E23.46497
G1 X92.142 Y130.690 E23.60546
G1 X90.653 Y128.111 E23.75981
G1 X89.582 Y125.915 E23.88645
G1 X88.559 Y123.406 E24.02695
G1 X87.638 Y120.574 E24.18129
G1 X87.047 Y118.204 E24.30793
G1 X86.598 Y115.708 E24.43938
G1 X86.530 Y115.271 E24.46229
G1 X86.275 Y112.842 E24.58893
G1 X86.171 Y109.866 E24.74327
G1 X86.256 Y107.425 E24.86991
G1 X86.530 Y104.729 E25.01040
G1 X86.992 Y102.058 E25.15090
G1 X87.712 Y99.169 E25.30525
G1 X88.559 Y96.594 E25.44574
G1 X89.474 Y94.329 E25.57238
G1 X90.779 Y91.653 E25.72672
G1 X92.000 Y89.537 E25.85337
G1 X93.508 Y87.285 E25.99386
G1 X95.303 Y84.985 E26.14510
G1 X95.650 Y85.217 F9000.000
G1 F1920
G1 X97.285 Y83.401 E26.27174
G1 X99.208 Y81.533 E26.41072
G1 X101.256 Y79.803 E26.54972
G1 X103.618 Y78.087 E26.70106
G1 X105.690 Y76.792 E26.82770
G1 X108.053 Y75.526 E26.96669
G1 X110.720 Y74.339 E27.11803
G1 X113.243 Y73.430 E27.25702
G1 X115.591 Y72.756 E27.38366
G1 X118.212 Y72.191 E27.52266
G1 X121.103 Y71.784 E27.67400
G1 X123.779 Y71.606 E27.81299
G1 X126.236 Y71.606 E27.94038
G1 X134.008 Y71.639 E28.34329
G1 X134.637 Y71.697 E28.37600
G1 X135.252 Y71.842 E28.40877
G1 X135.765 Y72.036 E28.43719
G1 X136.048 Y72.176 E28.45355
G1 X144.310 Y76.792 E28.94418
G1 X146.382 Y78.087 E29.07082
G1 X148.556 Y79.656 E29.20981
G1 X150.615 Y81.373 E29.34880
G1 X152.550 Y83.230 E29.48780
G1 X154.350 Y85.217 E29.62678
G1 X156.007 Y87.325 E29.76578
G1 X157.513 Y89.543 E29.90476
G1 X158.885 Y91.902 E30.04623
G1 X162.824 Y98.952 E30.46485
G1 X163.055 Y99.453 E30.49349
G1 X163.180 Y99.822 E30.51367
G1 X163.303 Y100.363 E30.54244
G1 X163.349 Y100.756 E30.56292
G1 X163.416 Y109.979 E31.04107
G1 X163.312 Y112.798 E31.18730
G1 X163.023 Y115.464 E31.32630
G1 X162.599 Y117.870 E31.45294
G1 X161.958 Y120.474 E31.59193
G1 X161.138 Y123.026 E31.73093
G1 X160.141 Y125.515 E31.86991
G1 X158.861 Y128.139 E32.02125
G1 X157.640 Y130.255 E32.14789
G1 X156.147 Y132.483 E32.28689
G1 X154.350 Y134.783 E32.43823
G1 X152.715 Y136.599 E32.56487
G1 X150.792 Y138.467 E32.70385
G1 X148.744 Y140.197 E32.84284
G1 X146.382 Y141.913 E32.99418
G1 X144.310 Y143.208 E33.12083
G1 X141.947 Y144.474 E33.25982
G1 X139.280 Y145.661 E33.41115
G1 X136.757 Y146.570 E33.55014
G1 X134.409 Y147.244 E33.67679
G1 X131.788 Y147.809 E33.81578
G1 X128.897 Y148.216 E33.96712
G1 X126.221 Y148.394 E34.10611
G1 X123.779 Y148.394 E34.23275
G1 X120.866 Y148.191 E34.38410
G1 X118.447 Y147.851 E34.51073
G1 X115.823 Y147.301 E34.64972
G1 X113.243 Y146.570 E34.78872
G1 X110.500 Y145.572 E34.94005
G1 X108.053 Y144.474 E35.07905
G1 X105.896 Y143.327 E35.20569
G1 X103.421 Y141.780 E35.35703
G1 X101.444 Y140.344 E35.48367
G1 X99.385 Y138.627 E35.62266
G1 X97.450 Y136.770 E35.76166
G1 X95.497 Y134.600 E35.91300
G1 X93.993 Y132.675 E36.03963
G1 X92.487 Y130.457 E36.17862
G1 X91.027 Y127.929 E36.32997
G1 X89.956 Y125.733 E36.45661
G1 X88.944 Y123.250 E36.59560
G1 X88.042 Y120.474 E36.74694
G1 X87.451 Y118.103 E36.87358
G1 X87.007 Y115.636 E37.00352
G1 X86.944 Y115.228 E37.02493
G1 X86.688 Y112.798 E37.15157
G1 X86.586 Y109.881 E37.30291
G1 X86.672 Y107.439 E37.42955
G1 X86.944 Y104.772 E37.56853
G1 X87.401 Y102.130 E37.70752
G1 X88.107 Y99.297 E37.85887
G1 X88.862 Y96.974 E37.98551
G1 X89.859 Y94.485 E38.12449
G1 X91.139 Y91.861 E38.27584
G1 X92.487 Y89.543 E38.41483
G1 X93.853 Y87.517 E38.54147
G1 X95.612 Y85.263 E38.68971
G1 E38.08971 F900.00000
G92 E0
G1 X126.446 Y142.984 F9000.000
G1 E0.65000 F900.00000
G1 F960
G1 X126.293 Y143.272 E0.66690
G1 X126.091 Y143.513 E0.68320
G1 X125.906 Y143.667 E0.69566
G1 X125.634 Y143.824 E0.71196
G1 X125.324 Y143.925 E0.72885
G1 X125.000 Y143.959 E0.74575
G1 X124.676 Y143.925 E0.76265
G1 X124.366 Y143.824 E0.77954
G1 X124.094 Y143.667 E0.79584
G1 X123.909 Y143.513 E0.80830
G1 X123.714 Y143.280 E0.82406
G1 X123.592 Y143.067 E0.83678
G1 X123.487 Y142.777 E0.85278
G1 X123.443 Y142.465 E0.86911
G1 X123.453 Y142.220 E0.88183
G1 X123.517 Y141.918 E0.89784
G1 X123.650 Y141.620 E0.91470
G1 X123.841 Y141.357 E0.93160
G1 X124.083 Y141.139 E0.94850
G1 X124.366 Y140.976 E0.96540
G1 X124.675 Y140.875 E0.98227
G1 X124.982 Y140.842 E0.99827
G1 X125.227 Y140.859 E1.01099
G1 X125.533 Y140.935 E1.02735
G1 X125.826 Y141.078 E1.04424
G1 X126.083 Y141.278 E1.06114
G1 X126.285 Y141.519 E1.07744
G1 X126.405 Y141.727 E1.08990
G1 X126.513 Y142.023 E1.10620
G1 X126.558 Y142.346 E1.12309
G1 X126.536 Y142.671 E1.13999
G1 X126.462 Y142.926 E1.15377
G1 X126.058 Y142.827 F9000.000
G1 F960
G1 X125.946 Y143.038 E1.16615
G1 X125.796 Y143.218 E1.17830
G1 X125.667 Y143.325 E1.18698
G1 X125.464 Y143.443 E1.19913
G1 X125.237 Y143.516 E1.21150
G1 X125.000 Y143.541 E1.22387
G1 X124.763 Y143.516 E1.23624
G1 X124.536 Y143.443 E1.24860
G1 X124.333 Y143.325 E1.26075
G1 X124.204 Y143.218 E1.26944
G1 X124.056 Y143.041 E1.28139
G1 X123.971 Y142.892 E1.29032
G1 X123.893 Y142.676 E1.30222
G1 X123.860 Y142.444 E1.31438
G1 X123.867 Y142.271 E1.32331
G1 X123.915 Y142.047 E1.33520
G1 X124.012 Y141.829 E1.34756
G1 X124.152 Y141.636 E1.35993
G1 X124.329 Y141.477 E1.37229
G1 X124.536 Y141.357 E1.38466
G1 X124.763 Y141.284 E1.39702
G1 X124.991 Y141.259 E1.40892
G1 X125.163 Y141.271 E1.41785
G1 X125.390 Y141.328 E1.43002
G1 X125.605 Y141.432 E1.44238
G1 X125.793 Y141.579 E1.45475
G1 X125.943 Y141.759 E1.46690
G1 X126.027 Y141.904 E1.47559
G1 X126.107 Y142.124 E1.48774
G1 X126.141 Y142.360 E1.50011
G1 X126.124 Y142.598 E1.51248
G1 X126.075 Y142.770 E1.52173
G1 X126.058 Y142.827 F9000.000
G1 E0.92173 F900.00000
G92 E0
G1 X114.143 Y140.164 F9000.000
G1 E0.65000 F900.00000
G1 F960
G1 X114.062 Y140.480 E0.66690
G1 X113.916 Y140.772 E0.68381
G1 X113.713 Y141.027 E0.70070
G1 X113.462 Y141.234 E0.71759
G1 X113.173 Y141.384 E0.73449
G1 X112.869 Y141.469 E0.75079
G1 X112.630 Y141.492 E0.76326
G1 X112.317 Y141.467 E0.77955
G1 X112.015 Y141.378 E0.79585
G1 X111.800 Y141.270 E0.80830
G1 X111.557 Y141.090 E0.82400
G1 X111.392 Y140.916 E0.83645
G1 X111.218 Y140.654 E0.85276
G1 X111.099 Y140.350 E0.86966
G1 X111.045 Y140.029 E0.88655
G1 X111.058 Y139.715 E0.90285
G1 X111.110 Y139.480 E0.91531
G1 X111.231 Y139.190 E0.93161
G1 X111.415 Y138.921 E0.94851
G1 X111.652 Y138.697 E0.96540
G1 X111.930 Y138.526 E0.98230
G1 X112.237 Y138.418 E0.99917
G1 X112.543 Y138.377 E1.01517
G1 X112.788 Y138.387 E1.02789
G1 X113.096 Y138.455 E1.04424
G1 X113.392 Y138.590 E1.06114
G1 X113.654 Y138.784 E1.07804
G1 X113.863 Y139.020 E1.09435
G1 X113.988 Y139.224 E1.10680
G1 X114.104 Y139.517 E1.12310
G1 X114.157 Y139.838 E1.14000
G1 X114.146 Y140.104 E1.15378
G1 X113.730 Y140.102 F9000.000
G1 F960
G1 X113.670 Y140.333 E1.16615
G1 X113.564 Y140.547 E1.17852
G1 X113.415 Y140.734 E1.19089
G1 X113.231 Y140.885 E1.20326
G1 X113.019 Y140.996 E1.21563
G1 X112.793 Y141.058 E1.22778
G1 X112.627 Y141.074 E1.23647
G1 X112.393 Y141.056 E1.24862
G1 X112.168 Y140.989 E1.26076
G1 X112.018 Y140.915 E1.26945
G1 X111.833 Y140.778 E1.28138
G1 X111.718 Y140.656 E1.29006
G1 X111.589 Y140.461 E1.30221
G1 X111.501 Y140.239 E1.31458
G1 X111.462 Y140.003 E1.32695
G1 X111.472 Y139.769 E1.33910
G1 X111.508 Y139.606 E1.34779
G1 X111.598 Y139.389 E1.35994
G1 X111.733 Y139.192 E1.37231
G1 X111.906 Y139.028 E1.38468
G1 X112.110 Y138.904 E1.39704
G1 X112.334 Y138.824 E1.40940
G1 X112.562 Y138.794 E1.42130
G1 X112.734 Y138.801 E1.43022
G1 X112.963 Y138.851 E1.44239
G1 X113.180 Y138.950 E1.45476
G1 X113.372 Y139.092 E1.46713
G1 X113.527 Y139.268 E1.47929
G1 X113.615 Y139.411 E1.48797
G1 X113.701 Y139.629 E1.50012
G1 X113.740 Y139.864 E1.51249
G1 X113.732 Y140.042 E1.52174
G1 X113.730 Y140.102 F9000.000
G1 E0.92174 F900.00000
G92 E0
G1 X103.426 Y133.713 F9000.000
G1 E0.65000 F900.00000
G1 F960
G1 X103.230 Y133.974 E0.66690
G1 X102.984 Y134.188 E0.68380
G1 X102.699 Y134.346 E0.70070
G1 X102.387 Y134.441 E0.71759
G1 X102.074 Y134.468 E0.73389
G1 X101.835 Y134.447 E0.74635
G1 X101.531 Y134.366 E0.76265
G1 X101.241 Y134.218 E0.77954
G1 X100.987 Y134.013 E0.79645
G1 X100.782 Y133.759 E0.81335
G1 X100.634 Y133.469 E0.83024
G1 X100.553 Y133.165 E0.84654
G1 X100.532 Y132.934 E0.85860
G1 X100.553 Y132.619 E0.87494
G1 X100.625 Y132.382 E0.88781
G1 X100.753 Y132.107 E0.90351
G1 X100.949 Y131.847 E0.92040
G1 X101.195 Y131.633 E0.93730
G1 X101.481 Y131.475 E0.95420
G1 X101.792 Y131.380 E0.97107
G1 X102.099 Y131.352 E0.98706
G1 X102.344 Y131.373 E0.99978
G1 X102.649 Y131.455 E1.01616
G1 X102.939 Y131.603 E1.03306
G1 X103.192 Y131.808 E1.04994
G1 X103.397 Y132.061 E1.06683
G1 X103.545 Y132.351 E1.08373
G1 X103.627 Y132.655 E1.10005
G1 X103.647 Y132.887 E1.11210
G1 X103.627 Y133.201 E1.12844
G1 X103.554 Y133.439 E1.14131
G1 X103.452 Y133.659 E1.15389
G1 X103.068 Y133.498 F9000.000
G1 F960
G1 X102.925 Y133.689 E1.16626
G1 X102.744 Y133.845 E1.17863
G1 X102.536 Y133.961 E1.19100
G1 X102.308 Y134.031 E1.20337
G1 X102.074 Y134.051 E1.21552
G1 X101.907 Y134.036 E1.22420
G1 X101.681 Y133.976 E1.23635
G1 X101.468 Y133.868 E1.24872
G1 X101.283 Y133.717 E1.26109
G1 X101.132 Y133.532 E1.27346
G1 X101.024 Y133.319 E1.28583
G1 X100.964 Y133.093 E1.29798
G1 X100.949 Y132.929 E1.30652
G1 X100.964 Y132.694 E1.31871
G1 X101.014 Y132.531 E1.32755
G1 X101.111 Y132.322 E1.33948
G1 X101.255 Y132.132 E1.35184
G1 X101.435 Y131.975 E1.36422
G1 X101.644 Y131.860 E1.37659
G1 X101.872 Y131.790 E1.38894
G1 X102.100 Y131.770 E1.40083
G1 X102.272 Y131.784 E1.40976
G1 X102.499 Y131.845 E1.42194
G1 X102.711 Y131.953 E1.43431
G1 X102.897 Y132.103 E1.44668
G1 X103.047 Y132.289 E1.45904
G1 X103.155 Y132.501 E1.47141
G1 X103.216 Y132.728 E1.48357
G1 X103.230 Y132.892 E1.49211
G1 X103.215 Y133.126 E1.50429
G1 X103.093 Y133.444 E1.52191
G1 X103.068 Y133.498 F9000.000
G1 E0.92191 F900.00000
G92 E0
G1 X95.994 Y123.652 F9000.000
G1 E0.65000 F900.00000
G1 F960
G1 X95.713 Y123.818 E0.66689
G1 X95.404 Y123.921 E0.68379
G1 X95.080 Y123.958 E0.70068
G1 X94.756 Y123.927 E0.71758
G1 X94.455 Y123.832 E0.73389
G1 X94.242 Y123.721 E0.74634
G1 X93.993 Y123.530 E0.76263
G1 X93.781 Y123.282 E0.77953
G1 X93.626 Y122.996 E0.79643
G1 X93.536 Y122.694 E0.81274
G1 X93.509 Y122.456 E0.82518
G1 X93.528 Y122.142 E0.84148
G1 X93.616 Y121.827 E0.85839
G1 X93.761 Y121.549 E0.87468
G1 X93.907 Y121.358 E0.88714
G1 X94.139 Y121.146 E0.90344
G1 X94.420 Y120.980 E0.92033
G1 X94.728 Y120.877 E0.93720
G1 X95.035 Y120.841 E0.95320
G1 X95.280 Y120.855 E0.96592
G1 X95.587 Y120.929 E0.98229
G1 X95.881 Y121.069 E0.99918
G1 X96.140 Y121.268 E1.01608
