; generated by Slic3r 1.3.1-dev on 2019-08-05 at 17:34:18

; Print Config Notes: 
; DMFE_3D_0.1mm375HC30%ThinPETG
; 
; Filament notes: 
; DMF_3D_1.75x1.00NatPETG250 B95
; 
; external perimeters extrusion width = 0.30mm (0.56mm^3/s)
; perimeters extrusion width = 0.30mm (0.84mm^3/s)
; infill extrusion width = 0.22mm (0.79mm^3/s)
; solid infill extrusion width = 0.30mm (1.11mm^3/s)
; top infill extrusion width = 0.30mm (1.11mm^3/s)

M190 S95 ; set bed temperature and wait for it to be reached
M104 S250 ; set temperature
G28 ; home all axes
; Filament gcode

M109 S250 ; set temperature and wait for it to be reached
G21 ; set units to millimeters
G90 ; use absolute coordinates
M82 ; use absolute distances for extrusion
G92 E0
G1 Z0.250 F3600.000
G1 E-0.60000 F900.00000
G92 E0
G1 X95.187 Y84.800 F3600.000
G1 E0.65000 F900.00000
G1 F1920
G1 X96.822 Y82.984 E0.73794
G1 X98.775 Y81.085 E0.83602
G1 X100.856 Y79.326 E0.93411
G1 X103.288 Y77.558 E1.04234
G1 X105.360 Y76.264 E1.13029
G1 X107.761 Y74.976 E1.22837
G1 X110.507 Y73.753 E1.33660
G1 X112.803 Y72.918 E1.42454
G1 X115.419 Y72.157 E1.52263
G1 X118.083 Y71.581 E1.62072
G1 X121.060 Y71.162 E1.72895
G1 X123.497 Y70.992 E1.81690
G1 X126.221 Y70.982 E1.91498
G1 X129.221 Y71.192 E2.02321
G1 X131.640 Y71.532 E2.11116
G1 X134.307 Y72.089 E2.20924
G1 X136.929 Y72.830 E2.30733
G1 X139.754 Y73.859 E2.41556
G1 X141.986 Y74.852 E2.50350
G1 X144.396 Y76.123 E2.60159
G1 X146.946 Y77.716 E2.70982
G1 X148.922 Y79.152 E2.79776
G1 X151.016 Y80.896 E2.89585
G1 X152.983 Y82.782 E2.99394
G1 X154.994 Y85.016 E3.10217
G1 X156.664 Y87.169 E3.20025
G1 X158.030 Y89.194 E3.28820
G1 X159.533 Y91.798 E3.39643
G1 X160.604 Y93.994 E3.48438
G1 X161.634 Y96.516 E3.58247
G1 X162.563 Y99.376 E3.69069
G1 X163.154 Y101.746 E3.77863
G1 X163.619 Y104.327 E3.87306
G1 X163.676 Y104.707 E3.88687
G1 X163.932 Y107.136 E3.97482
G1 X164.037 Y110.141 E4.08304
G1 X163.951 Y112.583 E4.17099
G1 X163.687 Y115.192 E4.26540
G1 X163.637 Y115.572 E4.27922
G1 X163.213 Y117.978 E4.36716
G1 X162.486 Y120.896 E4.47540
G1 X161.731 Y123.219 E4.56334
G1 X160.719 Y125.749 E4.66142
G1 X159.401 Y128.451 E4.76965
G1 X158.180 Y130.567 E4.85760
G1 X156.664 Y132.831 E4.95569
G1 X154.813 Y135.200 E5.06392
G1 X153.178 Y137.016 E5.15186
G1 X151.225 Y138.915 E5.24994
G1 X149.144 Y140.674 E5.34803
G1 X146.712 Y142.442 E5.45626
G1 X144.640 Y143.736 E5.54421
G1 X142.239 Y145.024 E5.64229
G1 X139.493 Y146.247 E5.75052
G1 X137.197 Y147.082 E5.83846
G1 X134.581 Y147.843 E5.93655
G1 X131.640 Y148.468 E6.04478
G1 X129.221 Y148.808 E6.13273
G1 X128.839 Y148.845 E6.14654
G1 X126.221 Y149.018 E6.24096
G1 X123.779 Y149.018 E6.32891
G1 X120.779 Y148.808 E6.43714
G1 X118.083 Y148.419 E6.53522
G1 X115.693 Y147.911 E6.62316
G1 X112.803 Y147.082 E6.73140
G1 X110.507 Y146.247 E6.81934
G1 X108.014 Y145.148 E6.91742
G1 X105.360 Y143.736 E7.02565
G1 X103.054 Y142.284 E7.12374
G1 X101.078 Y140.848 E7.21169
G1 X98.984 Y139.104 E7.30978
G1 X97.017 Y137.218 E7.40787
G1 X95.006 Y134.984 E7.51609
G1 X93.336 Y132.831 E7.61418
G1 X91.970 Y130.806 E7.70212
G1 X90.467 Y128.202 E7.81035
G1 X89.396 Y126.006 E7.89830
G1 X88.366 Y123.484 E7.99639
G1 X87.437 Y120.624 E8.10461
G1 X86.846 Y118.254 E8.19256
G1 X86.363 Y115.572 E8.29064
G1 X86.068 Y112.864 E8.38873
G1 X85.963 Y109.859 E8.49696
G1 X86.049 Y107.417 E8.58491
G1 X86.313 Y104.808 E8.67932
G1 X86.363 Y104.428 E8.69314
G1 X86.787 Y102.022 E8.78108
G1 X87.514 Y99.104 E8.88932
G1 X88.269 Y96.781 E8.97726
G1 X89.281 Y94.251 E9.07534
G1 X90.599 Y91.549 E9.18357
G1 X91.820 Y89.433 E9.27152
G1 X93.336 Y87.169 E9.36961
G1 X95.148 Y84.846 E9.47568
G1 X95.444 Y85.031 F3600.000
G1 F1920
G1 X97.079 Y83.216 E9.56362
G1 X99.015 Y81.334 E9.66083
G1 X101.078 Y79.591 E9.75805
G1 X103.471 Y77.852 E9.86454
G1 X105.543 Y76.558 E9.95249
G1 X107.923 Y75.282 E10.04970
G1 X110.626 Y74.079 E10.15619
G1 X112.921 Y73.243 E10.24414
G1 X115.515 Y72.490 E10.34135
G1 X118.155 Y71.920 E10.43857
G1 X121.084 Y71.508 E10.54506
G1 X123.521 Y71.338 E10.63301
G1 X126.221 Y71.329 E10.73022
G1 X129.172 Y71.535 E10.83671
G1 X131.592 Y71.875 E10.92466
G1 X134.235 Y72.428 E11.02187
G1 X136.833 Y73.163 E11.11910
G1 X139.613 Y74.175 E11.22558
G1 X141.845 Y75.169 E11.31352
G1 X144.234 Y76.429 E11.41074
G1 X146.742 Y77.996 E11.51723
G1 X148.922 Y79.591 E11.61445
G1 X150.793 Y81.161 E11.70240
G1 X152.921 Y83.216 E11.80888
G1 X154.722 Y85.229 E11.90611
G1 X156.377 Y87.363 E12.00332
G1 X157.743 Y89.388 E12.09126
G1 X159.222 Y91.950 E12.19776
G1 X160.293 Y94.145 E12.28570
G1 X161.313 Y96.646 E12.38292
G1 X162.227 Y99.459 E12.48941
G1 X162.818 Y101.830 E12.57735
G1 X163.278 Y104.388 E12.67091
G1 X163.332 Y104.743 E12.68385
G1 X163.587 Y107.173 E12.77179
G1 X163.690 Y110.129 E12.87828
G1 X163.605 Y112.570 E12.96622
G1 X163.343 Y115.156 E13.05977
G1 X163.296 Y115.512 E13.07272
G1 X162.872 Y117.918 E13.16066
G1 X162.156 Y120.789 E13.26715
G1 X161.401 Y123.112 E13.35510
G1 X160.398 Y125.619 E13.45231
G1 X159.101 Y128.278 E13.55880
G1 X157.880 Y130.394 E13.64675
G1 X156.377 Y132.637 E13.74396
G1 X154.556 Y134.969 E13.85046
G1 X152.921 Y136.784 E13.93840
G1 X150.985 Y138.666 E14.03561
G1 X148.922 Y140.409 E14.13283
G1 X146.529 Y142.148 E14.23932
G1 X144.457 Y143.442 E14.32727
G1 X142.077 Y144.718 E14.42448
G1 X139.374 Y145.921 E14.53097
G1 X137.079 Y146.757 E14.61891
G1 X134.485 Y147.510 E14.71613
G1 X131.592 Y148.125 E14.82262
G1 X129.172 Y148.465 E14.91057
G1 X128.815 Y148.499 E14.92351
G1 X126.221 Y148.671 E15.01706
G1 X123.779 Y148.671 E15.10501
G1 X120.828 Y148.465 E15.21150
G1 X118.155 Y148.080 E15.30871
G1 X115.765 Y147.572 E15.39666
G1 X112.921 Y146.757 E15.50315
G1 X110.626 Y145.921 E15.59109
G1 X108.155 Y144.831 E15.68831
G1 X105.543 Y143.442 E15.79480
G1 X103.258 Y142.004 E15.89201
G1 X101.281 Y140.568 E15.97996
G1 X99.207 Y138.839 E16.07718
G1 X97.258 Y136.969 E16.17440
G1 X95.278 Y134.771 E16.28089
G1 X93.774 Y132.846 E16.36883
G1 X92.257 Y130.612 E16.46605
G1 X90.778 Y128.050 E16.57254
G1 X89.707 Y125.855 E16.66048
G1 X88.687 Y123.354 E16.75770
G1 X87.773 Y120.541 E16.86419
G1 X87.182 Y118.170 E16.95213
G1 X86.722 Y115.613 E17.04569
G1 X86.668 Y115.257 E17.05863
G1 X86.413 Y112.827 E17.14657
G1 X86.310 Y109.871 E17.25306
G1 X86.395 Y107.430 E17.34101
G1 X86.668 Y104.743 E17.43822
G1 X87.128 Y102.082 E17.53544
G1 X87.844 Y99.211 E17.64193
G1 X88.599 Y96.888 E17.72988
G1 X89.602 Y94.381 E17.82709
G1 X90.899 Y91.722 E17.93358
G1 X92.120 Y89.606 E18.02152
G1 X93.623 Y87.363 E18.11874
G1 X95.406 Y85.077 E18.22308
G1 X95.702 Y85.263 F3600.000
G1 F1920
G1 X97.336 Y83.448 E18.31102
G1 X99.256 Y81.583 E18.40736
G1 X101.301 Y79.856 E18.50371
G1 X103.655 Y78.146 E18.60846
G1 X105.727 Y76.851 E18.69641
G1 X108.086 Y75.588 E18.79275
G1 X110.744 Y74.404 E18.89750
G1 X113.040 Y73.568 E18.98544
G1 X115.610 Y72.823 E19.08179
G1 X118.457 Y72.218 E19.18655
G1 X120.876 Y71.878 E19.27449
G1 X121.210 Y71.846 E19.28656
G1 X123.779 Y71.675 E19.37924
G1 X126.221 Y71.675 E19.46719
G1 X129.124 Y71.878 E19.57194
G1 X131.543 Y72.218 E19.65988
G1 X134.163 Y72.766 E19.75623
G1 X136.960 Y73.568 E19.86098
G1 X139.256 Y74.404 E19.94893
G1 X141.704 Y75.485 E20.04527
G1 X144.071 Y76.734 E20.14162
G1 X146.539 Y78.276 E20.24637
G1 X148.699 Y79.856 E20.34272
G1 X150.571 Y81.426 E20.43066
G1 X152.502 Y83.280 E20.52701
G1 X154.449 Y85.442 E20.63176
G1 X155.953 Y87.367 E20.71971
G1 X157.456 Y89.582 E20.81605
G1 X158.911 Y92.102 E20.92080
G1 X159.982 Y94.297 E21.00875
G1 X160.992 Y96.776 E21.10510
G1 X161.891 Y99.543 E21.20984
G1 X162.482 Y101.914 E21.29779
G1 X162.937 Y104.448 E21.39047
G1 X162.987 Y104.779 E21.40254
G1 X163.243 Y107.209 E21.49049
G1 X163.344 Y110.117 E21.59524
G1 X163.259 Y112.558 E21.68318
G1 X162.998 Y115.120 E21.77586
G1 X162.955 Y115.452 E21.78793
G1 X162.531 Y117.858 E21.87588
G1 X161.827 Y120.681 E21.98063
G1 X161.072 Y123.005 E22.06858
G1 X160.077 Y125.489 E22.16492
G1 X158.801 Y128.105 E22.26967
G1 X157.580 Y130.220 E22.35762
G1 X156.090 Y132.444 E22.45396
G1 X154.298 Y134.737 E22.55872
G1 X152.664 Y136.552 E22.64666
G1 X150.744 Y138.417 E22.74300
G1 X148.699 Y140.144 E22.83935
G1 X146.345 Y141.854 E22.94410
G1 X144.273 Y143.149 E23.03205
G1 X141.914 Y144.412 E23.12839
G1 X139.256 Y145.596 E23.23314
G1 X136.960 Y146.432 E23.32108
G1 X134.390 Y147.177 E23.41743
G1 X131.543 Y147.782 E23.52218
G1 X129.124 Y148.122 E23.61013
G1 X128.790 Y148.154 E23.62220
G1 X126.221 Y148.325 E23.71488
G1 X123.779 Y148.325 E23.80283
G1 X120.876 Y148.122 E23.90758
G1 X118.227 Y147.742 E24.00392
G1 X115.837 Y147.234 E24.09187
G1 X113.040 Y146.432 E24.19662
G1 X110.744 Y145.596 E24.28457
G1 X108.296 Y144.515 E24.38091
G1 X105.727 Y143.149 E24.48566
G1 X103.461 Y141.724 E24.58201
G1 X101.485 Y140.288 E24.66995
G1 X99.429 Y138.574 E24.76630
G1 X97.498 Y136.720 E24.86265
G1 X95.551 Y134.558 E24.96740
G1 X94.047 Y132.633 E25.05535
G1 X92.544 Y130.418 E25.15169
G1 X91.089 Y127.898 E25.25644
G1 X90.018 Y125.703 E25.34439
G1 X89.008 Y123.224 E25.44074
G1 X88.109 Y120.457 E25.54548
G1 X87.518 Y118.086 E25.63343
G1 X87.045 Y115.452 E25.72978
G1 X86.757 Y112.791 E25.82613
G1 X86.656 Y109.883 E25.93088
G1 X86.741 Y107.442 E26.01882
G1 X87.002 Y104.880 E26.11150
G1 X87.045 Y104.548 E26.12357
G1 X87.469 Y102.142 E26.21152
G1 X88.173 Y99.319 E26.31627
G1 X88.928 Y96.995 E26.40421
G1 X89.923 Y94.511 E26.50056
G1 X91.199 Y91.895 E26.60531
G1 X92.420 Y89.780 E26.69325
G1 X93.910 Y87.556 E26.78960
G1 X95.663 Y85.309 E26.89220
G1 E26.29220 F900.00000
G92 E0
G1 X127.567 Y124.156 F3600.000
G1 E0.65000 F900.00000
G1 F960
G1 X127.092 Y124.787 E0.67841
G1 X126.477 Y125.259 E0.70632
G1 X125.765 Y125.554 E0.73409
G1 X125.000 Y125.655 E0.76186
G1 X124.235 Y125.554 E0.78962
G1 X123.523 Y125.259 E0.81739
G1 X122.911 Y124.789 E0.84516
G1 X122.441 Y124.177 E0.87292
G1 X122.146 Y123.465 E0.90069
G1 X122.044 Y122.691 E0.92877
G1 X122.166 Y121.887 E0.95804
G1 X122.441 Y121.223 E0.98394
G1 X122.911 Y120.611 E1.01170
G1 X123.523 Y120.141 E1.03947
G1 X124.235 Y119.846 E1.06724
G1 X124.948 Y119.752 E1.09313
G1 X125.757 Y119.843 E1.12240
G1 X126.477 Y120.141 E1.15049
G1 X127.089 Y120.611 E1.17825
G1 X127.559 Y121.223 E1.20602
G1 X127.854 Y121.935 E1.23378
G1 X127.955 Y122.700 E1.26155
G1 X127.854 Y123.465 E1.28932
G1 X127.590 Y124.101 E1.31411
G1 X127.264 Y123.983 F3600.000
G1 F960
G1 X126.844 Y124.541 E1.33924
G1 X126.303 Y124.956 E1.36381
G1 X125.674 Y125.216 E1.38830
G1 X125.000 Y125.305 E1.41278
G1 X124.326 Y125.216 E1.43726
G1 X123.697 Y124.956 E1.46175
G1 X123.158 Y124.542 E1.48623
G1 X122.744 Y124.003 E1.51071
G1 X122.484 Y123.374 E1.53519
G1 X122.394 Y122.695 E1.55987
G1 X122.502 Y121.981 E1.58586
G1 X122.744 Y121.397 E1.60860
G1 X123.158 Y120.858 E1.63308
G1 X123.697 Y120.444 E1.65756
G1 X124.326 Y120.184 E1.68205
G1 X124.952 Y120.101 E1.70478
G1 X125.669 Y120.181 E1.73077
G1 X126.303 Y120.444 E1.75545
G1 X126.842 Y120.858 E1.77993
G1 X127.256 Y121.397 E1.80441
G1 X127.516 Y122.026 E1.82890
G1 X127.605 Y122.700 E1.85338
G1 X127.516 Y123.374 E1.87786
G1 X127.287 Y123.928 E1.89943
G1 X126.961 Y123.810 F3600.000
G1 F960
G1 X126.596 Y124.295 E1.92128
G1 X126.128 Y124.654 E1.94251
G1 X125.584 Y124.879 E1.96371
G1 X125.000 Y124.956 E1.98491
G1 X124.416 Y124.879 E2.00611
G1 X123.872 Y124.654 E2.02731
G1 X123.405 Y124.295 E2.04851
G1 X123.046 Y123.828 E2.06971
G1 X122.821 Y123.284 E2.09091
G1 X122.744 Y122.698 E2.11218
G1 X122.838 Y122.074 E2.13489
G1 X123.046 Y121.572 E2.15446
G1 X123.405 Y121.105 E2.17566
G1 X123.872 Y120.746 E2.19686
G1 X124.416 Y120.521 E2.21806
G1 X124.955 Y120.450 E2.23764
G1 X125.582 Y120.520 E2.26034
G1 X126.128 Y120.746 E2.28162
G1 X126.595 Y121.105 E2.30282
G1 X126.954 Y121.572 E2.32402
G1 X127.179 Y122.116 E2.34522
G1 X127.256 Y122.700 E2.36642
G1 X127.179 Y123.284 E2.38762
G1 X126.984 Y123.754 E2.40595
G1 X126.961 Y123.810 F3600.000
G1 E1.80595 F900.00000
G92 E0
G1 X126.041 Y117.265 F3600.000
G1 E0.65000 F900.00000
G1 F1440
G1 X125.768 Y117.303 E0.65995
G1 X125.256 Y117.339 E0.67840
G1 X124.744 Y117.339 E0.69685
G1 X124.232 Y117.303 E0.71530
G1 X123.725 Y117.232 E0.73375
G1 X123.223 Y117.125 E0.75220
G1 X122.731 Y116.984 E0.77066
G1 X122.249 Y116.809 E0.78911
G1 X121.781 Y116.600 E0.80756
G1 X121.328 Y116.359 E0.82601
G1 X120.894 Y116.088 E0.84446
G1 X120.479 Y115.787 E0.86291
G1 X120.086 Y115.457 E0.88136
G1 X119.718 Y115.101 E0.89981
G1 X119.375 Y114.720 E0.91827
G1 X119.058 Y114.315 E0.93676
G1 X118.763 Y113.874 E0.95589
G1 X118.516 Y113.447 E0.97362
G1 X118.292 Y112.987 E0.99207
G1 X118.100 Y112.512 E1.01052
G1 X117.941 Y112.024 E1.02897
G1 X117.817 Y111.527 E1.04742
G1 X117.728 Y111.021 E1.06592
G1 X117.674 Y110.492 E1.08504
G1 X117.657 Y110.000 E1.10277
G1 X117.675 Y109.488 E1.12123
G1 X117.728 Y108.978 E1.13968
G1 X117.817 Y108.473 E1.15813
G1 X117.941 Y107.976 E1.17658
G1 X118.100 Y107.488 E1.19503
G1 X118.292 Y107.013 E1.21348
G1 X118.516 Y106.553 E1.23193
G1 X118.773 Y106.109 E1.25038
G1 X119.059 Y105.684 E1.26884
G1 X119.375 Y105.280 E1.28729
G1 X119.718 Y104.899 E1.30574
G1 X120.086 Y104.543 E1.32419
G1 X120.479 Y104.213 E1.34264
G1 X120.894 Y103.912 E1.36109
G1 X121.328 Y103.641 E1.37954
G1 X121.781 Y103.400 E1.39799
G1 X122.249 Y103.191 E1.41645
G1 X122.731 Y103.016 E1.43490
G1 X123.223 Y102.875 E1.45335
G1 X123.725 Y102.768 E1.47180
G1 X124.232 Y102.697 E1.49025
G1 X124.744 Y102.661 E1.50870
G1 X125.256 Y102.661 E1.52715
G1 X125.748 Y102.696 E1.54488
G1 X126.274 Y102.768 E1.56401
G1 X126.776 Y102.875 E1.58251
G1 X127.269 Y103.016 E1.60096
G1 X127.751 Y103.191 E1.61941
G1 X128.219 Y103.400 E1.63786
G1 X128.672 Y103.641 E1.65631
G1 X129.106 Y103.912 E1.67476
G1 X129.521 Y104.213 E1.69321
G1 X129.914 Y104.543 E1.71166
G1 X130.282 Y104.899 E1.73011
G1 X130.625 Y105.280 E1.74857
G1 X130.941 Y105.684 E1.76702
G1 X131.227 Y106.109 E1.78547
G1 X131.484 Y106.554 E1.80396
G1 X131.716 Y107.032 E1.82309
G1 X131.900 Y107.488 E1.84082
G1 X132.059 Y107.976 E1.85927
G1 X132.183 Y108.473 E1.87772
G1 X132.272 Y108.978 E1.89617
G1 X132.325 Y109.488 E1.91463
G1 X132.343 Y110.001 E1.93312
G1 X132.323 Y110.532 E1.95225
G1 X132.272 Y111.022 E1.96998
G1 X132.183 Y111.527 E1.98843
G1 X132.059 Y112.024 E2.00688
G1 X131.900 Y112.512 E2.02533
G1 X131.708 Y112.987 E2.04378
G1 X131.484 Y113.447 E2.06223
G1 X131.227 Y113.891 E2.08069
G1 X130.941 Y114.316 E2.09914
G1 X130.625 Y114.720 E2.11759
G1 X130.282 Y115.101 E2.13604
G1 X129.914 Y115.457 E2.15449
G1 X129.521 Y115.787 E2.17294
G1 X129.106 Y116.088 E2.19139
G1 X128.672 Y116.359 E2.20984
G1 X128.219 Y116.600 E2.22830
G1 X127.769 Y116.800 E2.24603
G1 X127.270 Y116.983 E2.26515
G1 X126.776 Y117.125 E2.28365
G1 X126.101 Y117.256 E2.30843
G1 X125.993 Y116.922 F3600.000
G1 F1440
G1 X125.244 Y116.992 E2.33551
G1 X124.756 Y116.992 E2.35309
G1 X124.269 Y116.958 E2.37067
G1 X123.785 Y116.890 E2.38825
G1 X123.307 Y116.789 E2.40583
G1 X122.838 Y116.654 E2.42341
G1 X122.379 Y116.487 E2.44099
G1 X121.933 Y116.289 E2.45857
G1 X121.502 Y116.059 E2.47615
G1 X121.088 Y115.801 E2.49373
G1 X120.692 Y115.513 E2.51131
G1 X120.318 Y115.200 E2.52889
G1 X119.967 Y114.860 E2.54647
G1 X119.640 Y114.497 E2.56405
G1 X119.339 Y114.112 E2.58166
G1 X119.057 Y113.691 E2.59992
G1 X118.822 Y113.285 E2.61679
G1 X118.608 Y112.846 E2.63437
G1 X118.425 Y112.393 E2.65196
G1 X118.274 Y111.929 E2.66954
G1 X118.156 Y111.455 E2.68712
G1 X118.071 Y110.973 E2.70472
G1 X118.020 Y110.469 E2.72298
G1 X118.003 Y110.000 E2.73986
G1 X118.020 Y109.512 E2.75744
G1 X118.071 Y109.026 E2.77502
G1 X118.156 Y108.545 E2.79260
G1 X118.274 Y108.071 E2.81018
G1 X118.425 Y107.607 E2.82776
G1 X118.608 Y107.154 E2.84534
G1 X118.822 Y106.715 E2.86292
G1 X119.066 Y106.292 E2.88050
G1 X119.340 Y105.887 E2.89808
G1 X119.640 Y105.503 E2.91566
G1 X119.967 Y105.140 E2.93324
G1 X120.318 Y104.800 E2.95082
G1 X120.692 Y104.487 E2.96840
G1 X121.088 Y104.199 E2.98598
G1 X121.502 Y103.941 E3.00356
G1 X121.933 Y103.711 E3.02114
G1 X122.379 Y103.513 E3.03872
G1 X122.838 Y103.346 E3.05630
G1 X123.307 Y103.211 E3.07388
G1 X123.785 Y103.110 E3.09146
G1 X124.269 Y103.042 E3.10905
G1 X124.756 Y103.008 E3.12663
