; generated by Slic3r 1.3.1-dev on 2019-08-06 at 16:49:59

; Print Config Notes: 
; DMF_3D_0.2mm354HC30%PETG
; Slower for PETG
; 
; Filament notes: 
; DMF_3D_1.75x1.00NatPETG250 B95
; 
; external perimeters extrusion width = 0.40mm (1.43mm^3/s)
; perimeters extrusion width = 0.50mm (2.74mm^3/s)
; infill extrusion width = 0.44mm (3.18mm^3/s)
; solid infill extrusion width = 0.40mm (2.86mm^3/s)
; top infill extrusion width = 0.40mm (2.86mm^3/s)

M190 S95 ; set bed temperature and wait for it to be reached
M104 S250 ; set temperature
G28 ; home all axes
; Filament gcode

M109 S250 ; set temperature and wait for it to be reached
G21 ; set units to millimeters
G90 ; use absolute coordinates
M82 ; use absolute distances for extrusion
G92 E0
G1 Z0.300 F9000.000
G1 E-0.60000 F900.00000
G92 E0
G1 X85.212 Y84.782 F9000.000
G1 E0.65000 F900.00000
G1 F1920
G1 X85.834 Y84.222 E0.69335
G1 X86.572 Y83.693 E0.74044
G1 X101.106 Y74.494 E1.63210
G1 X103.662 Y72.908 E1.78804
G1 X106.057 Y71.635 E1.92862
G1 X121.291 Y63.648 E2.82028
G1 X121.892 Y63.365 E2.85471
G1 X122.396 Y63.172 E2.88271
G1 X122.914 Y63.015 E2.91074
G1 X123.441 Y62.894 E2.93879
G1 X123.974 Y62.811 E2.96675
G1 X124.514 Y62.764 E2.99486
G1 X125.053 Y62.756 E3.02282
G1 X125.595 Y62.785 E3.05095
G1 X126.371 Y62.894 E3.09155
G1 X126.898 Y63.015 E3.11960
G1 X127.416 Y63.172 E3.14763
G1 X127.920 Y63.365 E3.17563
G1 X128.521 Y63.648 E3.21007
G1 X143.755 Y71.635 E4.10173
G1 X146.407 Y73.057 E4.25768
G1 X148.706 Y74.494 E4.39826
G1 X163.240 Y83.693 E5.28992
G1 X163.786 Y84.072 E5.32435
G1 X164.206 Y84.413 E5.35243
G1 X164.770 Y84.958 E5.39303
G1 X165.126 Y85.367 E5.42116
G1 X165.451 Y85.796 E5.44907
G1 X165.747 Y86.250 E5.47716
G1 X166.009 Y86.722 E5.50514
G1 X166.350 Y87.485 E5.54848
G1 X166.525 Y87.999 E5.57660
G1 X166.715 Y88.759 E5.61722
G1 X166.821 Y89.465 E5.65425
G1 X167.809 Y99.434 E6.17353
G1 X167.840 Y100.142 E6.21027
G1 X167.650 Y110.148 E6.72908
G1 X167.556 Y112.859 E6.86966
G1 X166.848 Y130.169 E7.76777
G1 X166.766 Y130.950 E7.80845
G1 X166.664 Y131.482 E7.83653
G1 X166.525 Y132.002 E7.86446
G1 X166.349 Y132.516 E7.89259
G1 X166.140 Y133.012 E7.92050
G1 X165.747 Y133.751 E7.96390
G1 X165.307 Y134.402 E8.00465
G1 X164.770 Y135.042 E8.04796
G1 X164.206 Y135.587 E8.08857
G1 X163.545 Y136.103 E8.13204
G1 X148.706 Y145.506 E9.04272
G1 X146.407 Y146.943 E9.18330
G1 X143.755 Y148.365 E9.33925
G1 X128.521 Y156.352 E10.23091
G1 X127.921 Y156.635 E10.26531
G1 X127.416 Y156.828 E10.29335
G1 X126.898 Y156.985 E10.32137
G1 X126.371 Y157.106 E10.34943
G1 X125.838 Y157.189 E10.37737
G1 X125.298 Y157.236 E10.40549
G1 X124.759 Y157.244 E10.43345
G1 X124.217 Y157.215 E10.46158
G1 X123.441 Y157.106 E10.50217
G1 X122.914 Y156.985 E10.53023
G1 X122.397 Y156.828 E10.55825
G1 X121.892 Y156.635 E10.58626
G1 X121.291 Y156.352 E10.62070
G1 X106.057 Y148.365 E11.51236
G1 X103.405 Y146.943 E11.66830
G1 X101.106 Y145.506 E11.80888
G1 X86.572 Y136.307 E12.70054
G1 X86.026 Y135.928 E12.73497
G1 X85.606 Y135.587 E12.76305
G1 X85.042 Y135.042 E12.80366
G1 X84.686 Y134.634 E12.83175
G1 X84.361 Y134.204 E12.85970
G1 X84.066 Y133.751 E12.88773
G1 X83.803 Y133.278 E12.91577
G1 X83.463 Y132.515 E12.95910
G1 X83.287 Y132.001 E12.98723
G1 X83.148 Y131.480 E13.01520
G1 X83.046 Y130.949 E13.04324
G1 X82.957 Y130.045 E13.09031
G1 X82.257 Y112.859 E13.98197
G1 X82.162 Y110.148 E14.12256
G1 X82.257 Y107.141 E14.27850
G1 X82.957 Y89.955 E15.17015
G1 X83.012 Y89.293 E15.20457
G1 X83.097 Y88.759 E15.23263
G1 X83.283 Y88.010 E15.27261
G1 X83.463 Y87.485 E15.30138
G1 X83.672 Y86.989 E15.32929
G1 X83.917 Y86.506 E15.35737
G1 X84.361 Y85.796 E15.40077
G1 X84.686 Y85.366 E15.42872
G1 X85.170 Y84.825 E15.46636
G1 X85.511 Y85.071 F9000.000
G1 F1920
G1 X86.089 Y84.550 E15.50671
G1 X86.794 Y84.045 E15.55166
G1 X101.328 Y74.845 E16.44332
G1 X103.857 Y73.275 E16.59763
G1 X106.250 Y72.003 E16.73809
G1 X121.484 Y64.016 E17.62975
G1 X122.047 Y63.750 E17.66205
G1 X122.525 Y63.568 E17.68855
G1 X123.014 Y63.418 E17.71508
G1 X123.513 Y63.303 E17.74162
G1 X124.017 Y63.224 E17.76809
G1 X124.529 Y63.180 E17.79468
G1 X125.283 Y63.180 E17.83381
G1 X125.795 Y63.224 E17.86041
G1 X126.560 Y63.359 E17.90072
G1 X127.055 Y63.492 E17.92726
G1 X127.538 Y63.659 E17.95376
G1 X128.009 Y63.859 E17.98030
G1 X143.562 Y72.003 E18.89039
G1 X146.186 Y73.409 E19.04471
G1 X148.484 Y74.845 E19.18516
G1 X163.018 Y84.045 E20.07682
G1 X163.530 Y84.399 E20.10912
G1 X163.928 Y84.722 E20.13569
G1 X164.471 Y85.246 E20.17480
G1 X164.808 Y85.634 E20.20142
G1 X165.115 Y86.040 E20.22783
G1 X165.395 Y86.470 E20.25441
G1 X165.643 Y86.917 E20.28090
G1 X165.959 Y87.628 E20.32123
G1 X166.126 Y88.113 E20.34784
G1 X166.308 Y88.845 E20.38696
G1 X166.407 Y89.506 E20.42160
G1 X167.396 Y99.475 E20.94089
G1 X167.425 Y100.134 E20.97510
G1 X167.235 Y110.134 E21.49356
G1 X167.140 Y112.842 E21.63401
G1 X166.434 Y130.140 E22.53149
G1 X166.355 Y130.892 E22.57067
G1 X166.257 Y131.395 E22.59724
G1 X166.126 Y131.888 E22.62368
G1 X165.959 Y132.373 E22.65029
G1 X165.760 Y132.843 E22.67671
G1 X165.394 Y133.531 E22.71710
G1 X164.971 Y134.158 E22.75634
G1 X164.471 Y134.754 E22.79665
G1 X163.928 Y135.278 E22.83576
G1 X163.313 Y135.758 E22.87622
G1 X148.484 Y145.155 E23.78628
G1 X146.186 Y146.591 E23.92673
G1 X143.562 Y147.997 E24.08105
G1 X128.328 Y155.984 E24.97271
G1 X127.765 Y156.250 E25.00498
G1 X127.287 Y156.433 E25.03152
G1 X126.798 Y156.582 E25.05804
G1 X126.299 Y156.697 E25.08459
G1 X125.795 Y156.776 E25.11104
G1 X125.283 Y156.820 E25.13764
G1 X124.529 Y156.820 E25.17677
G1 X124.017 Y156.776 E25.20337
G1 X123.514 Y156.697 E25.22981
G1 X123.014 Y156.582 E25.25637
G1 X122.525 Y156.433 E25.28288
G1 X121.804 Y156.141 E25.32320
G1 X106.250 Y147.997 E26.23335
G1 X103.626 Y146.591 E26.38767
G1 X101.328 Y145.155 E26.52812
G1 X86.794 Y135.955 E27.41978
G1 X86.282 Y135.601 E27.45208
G1 X85.884 Y135.278 E27.47864
G1 X85.341 Y134.754 E27.51776
G1 X85.005 Y134.367 E27.54434
G1 X84.697 Y133.960 E27.57079
G1 X84.418 Y133.531 E27.59732
G1 X84.170 Y133.083 E27.62386
G1 X83.853 Y132.372 E27.66418
G1 X83.686 Y131.887 E27.69080
G1 X83.555 Y131.394 E27.71727
G1 X83.457 Y130.891 E27.74381
G1 X83.372 Y130.028 E27.78875
G1 X82.672 Y112.842 E28.68041
G1 X82.577 Y110.134 E28.82087
G1 X82.672 Y107.158 E28.97518
G1 X83.372 Y89.972 E29.86684
G1 X83.423 Y89.351 E29.89913
G1 X83.504 Y88.845 E29.92567
G1 X83.686 Y88.113 E29.96481
G1 X83.853 Y87.628 E29.99141
G1 X84.052 Y87.158 E30.01783
G1 X84.284 Y86.701 E30.04441
G1 X84.697 Y86.040 E30.08480
G1 X85.005 Y85.633 E30.11125
G1 X85.469 Y85.114 E30.14738
G1 X85.810 Y85.359 F9000.000
G1 F1920
G1 X86.345 Y84.877 E30.18473
G1 X87.017 Y84.396 E30.22755
G1 X101.550 Y75.196 E31.11921
G1 X104.052 Y73.642 E31.27189
G1 X106.443 Y72.371 E31.41223
G1 X121.677 Y64.385 E32.30389
G1 X122.203 Y64.136 E32.33406
G1 X122.653 Y63.963 E32.35905
G1 X123.115 Y63.822 E32.38408
G1 X123.585 Y63.713 E32.40911
G1 X124.061 Y63.637 E32.43408
G1 X124.543 Y63.595 E32.45917
G1 X125.269 Y63.595 E32.49680
G1 X125.751 Y63.637 E32.52188
G1 X126.460 Y63.762 E32.55919
G1 X126.926 Y63.887 E32.58423
G1 X127.382 Y64.044 E32.60923
G1 X127.827 Y64.233 E32.63426
G1 X143.369 Y72.371 E33.54373
G1 X145.966 Y73.761 E33.69642
G1 X148.262 Y75.196 E33.83675
G1 X162.796 Y84.396 E34.72840
G1 X163.274 Y84.727 E34.75857
G1 X163.650 Y85.031 E34.78363
G1 X164.172 Y85.535 E34.82124
G1 X164.489 Y85.901 E34.84635
G1 X164.779 Y86.285 E34.87127
G1 X165.042 Y86.690 E34.89634
G1 X165.276 Y87.112 E34.92133
G1 X165.568 Y87.770 E34.95866
G1 X165.726 Y88.228 E34.98376
G1 X165.902 Y88.932 E35.02138
G1 X165.994 Y89.547 E35.05364
G1 X166.982 Y99.516 E35.57292
G1 X167.009 Y100.126 E35.60460
G1 X166.820 Y110.119 E36.12271
G1 X166.725 Y112.825 E36.26304
G1 X166.019 Y130.111 E37.15989
G1 X165.943 Y130.834 E37.19756
G1 X165.851 Y131.308 E37.22263
G1 X165.726 Y131.773 E37.24757
G1 X165.568 Y132.231 E37.27267
G1 X165.380 Y132.674 E37.29760
G1 X165.042 Y133.310 E37.33498
G1 X164.635 Y133.914 E37.37271
G1 X164.172 Y134.465 E37.41002
G1 X163.650 Y134.969 E37.44763
G1 X163.081 Y135.414 E37.48507
G1 X148.262 Y144.804 E38.39451
G1 X145.966 Y146.239 E38.53484
G1 X143.369 Y147.629 E38.68753
G1 X128.135 Y155.615 E39.57919
G1 X127.609 Y155.864 E39.60934
G1 X127.159 Y156.037 E39.63436
G1 X126.697 Y156.179 E39.65938
G1 X126.227 Y156.287 E39.68442
G1 X125.751 Y156.363 E39.70938
G1 X125.269 Y156.405 E39.73447
G1 X124.543 Y156.405 E39.77210
G1 X124.061 Y156.363 E39.79719
G1 X123.586 Y156.287 E39.82214
G1 X123.115 Y156.178 E39.84719
G1 X122.653 Y156.037 E39.87220
G1 X121.986 Y155.768 E39.90951
G1 X106.443 Y147.629 E40.81903
G1 X103.846 Y146.239 E40.97172
G1 X101.550 Y144.804 E41.11205
G1 X87.017 Y135.604 E42.00371
G1 X86.538 Y135.273 E42.03387
G1 X86.162 Y134.969 E42.05893
G1 X85.640 Y134.465 E42.09655
G1 X85.323 Y134.100 E42.12162
G1 X85.033 Y133.715 E42.14658
G1 X84.771 Y133.310 E42.17160
G1 X84.536 Y132.888 E42.19663
G1 X84.244 Y132.230 E42.23396
G1 X84.086 Y131.772 E42.25906
G1 X83.961 Y131.307 E42.28403
G1 X83.869 Y130.833 E42.30906
G1 X83.787 Y130.011 E42.35188
G1 X83.087 Y112.825 E43.24354
G1 X82.993 Y110.119 E43.38387
G1 X83.086 Y107.195 E43.53553
G1 X83.787 Y89.989 E44.42821
G1 X83.835 Y89.409 E44.45838
G1 X83.910 Y88.932 E44.48341
G1 X84.082 Y88.239 E44.52040
G1 X84.244 Y87.770 E44.54614
G1 X84.432 Y87.327 E44.57107
G1 X84.651 Y86.896 E44.59614
G1 X85.033 Y86.285 E44.63352
G1 X85.323 Y85.900 E44.65847
G1 X85.768 Y85.403 E44.69309
G1 E44.09309 F900.00000
G92 E0
G1 X142.065 Y117.658 F9000.000
G1 E0.65000 F900.00000
G1 F960
G1 X141.530 Y118.057 E0.68459
G1 X140.964 Y118.292 E0.71635
G1 X140.327 Y118.376 E0.74966
G1 X139.690 Y118.292 E0.78297
G1 X139.124 Y118.057 E0.81472
G1 X138.589 Y117.658 E0.84931
G1 X138.195 Y117.145 E0.88285
G1 X137.950 Y116.551 E0.91616
G1 X137.866 Y115.914 E0.94947
G1 X137.950 Y115.277 E0.98278
G1 X138.184 Y114.711 E1.01454
G1 X138.583 Y114.176 E1.04913
G1 X139.096 Y113.783 E1.08267
G1 X139.690 Y113.537 E1.11598
G1 X140.327 Y113.453 E1.14929
G1 X140.964 Y113.537 E1.18260
G1 X141.558 Y113.783 E1.21591
G1 X142.071 Y114.176 E1.24945
G1 X142.470 Y114.711 E1.28405
G1 X142.705 Y115.277 E1.31580
G1 X142.789 Y115.914 E1.34911
G1 X142.705 Y116.551 E1.38242
G1 X142.459 Y117.145 E1.41573
G1 X142.101 Y117.611 E1.44616
G1 X141.770 Y117.360 F9000.000
G1 F960
G1 X141.323 Y117.693 E1.47508
G1 X140.856 Y117.887 E1.50131
G1 X140.327 Y117.957 E1.52895
G1 X139.799 Y117.887 E1.55658
G1 X139.331 Y117.693 E1.58281
G1 X138.884 Y117.360 E1.61173
G1 X138.558 Y116.935 E1.63945
G1 X138.354 Y116.443 E1.66709
G1 X138.285 Y115.914 E1.69472
G1 X138.354 Y115.386 E1.72236
G1 X138.548 Y114.918 E1.74859
G1 X138.882 Y114.471 E1.77751
G1 X139.306 Y114.146 E1.80523
G1 X139.799 Y113.942 E1.83287
G1 X140.327 Y113.872 E1.86051
G1 X140.856 Y113.942 E1.88814
G1 X141.348 Y114.146 E1.91578
G1 X141.773 Y114.471 E1.94350
G1 X142.106 Y114.918 E1.97242
G1 X142.300 Y115.386 E1.99865
G1 X142.369 Y115.914 E2.02628
G1 X142.300 Y116.443 E2.05392
G1 X142.096 Y116.935 E2.08156
G1 X141.807 Y117.312 E2.10617
G1 X141.770 Y117.360 F9000.000
G1 X142.469 Y114.015 F9000.000
G1 F960
G1 X142.370 Y113.882 E2.11479
G1 X141.767 Y113.420 E2.15415
G1 X141.073 Y113.132 E2.19314
G1 X140.327 Y113.034 E2.23212
G1 X139.582 Y113.132 E2.27110
G1 X138.887 Y113.420 E2.31009
G1 X138.284 Y113.882 E2.34945
G1 X138.185 Y114.015 E2.35807
G1 X137.019 Y113.326 E2.42828
G1 X136.697 Y113.092 E2.44892
G1 X136.381 Y112.828 E2.47025
G1 X136.085 Y112.542 E2.49159
G1 X135.810 Y112.236 E2.51293
G1 X135.556 Y111.912 E2.53426
G1 X135.326 Y111.570 E2.55560
G1 X135.121 Y111.214 E2.57694
G1 X134.940 Y110.844 E2.59827
G1 X134.786 Y110.462 E2.61961
G1 X134.659 Y110.071 E2.64095
G1 X134.559 Y109.672 E2.66228
G1 X134.488 Y109.266 E2.68362
G1 X134.445 Y108.857 E2.70495
G1 X134.430 Y108.445 E2.72629
G1 X134.445 Y108.034 E2.74763
G1 X134.488 Y107.625 E2.76896
G1 X134.559 Y107.219 E2.79030
G1 X134.659 Y106.820 E2.81164
G1 X134.786 Y106.429 E2.83297
G1 X134.940 Y106.047 E2.85431
G1 X135.121 Y105.677 E2.87565
G1 X135.326 Y105.321 E2.89698
G1 X135.556 Y104.979 E2.91832
G1 X135.810 Y104.655 E2.93965
G1 X136.085 Y104.349 E2.96099
G1 X136.381 Y104.063 E2.98233
G1 X136.697 Y103.799 E3.00366
G1 X137.019 Y103.565 E3.02431
G1 X138.185 Y102.876 E3.09451
G1 X138.289 Y103.015 E3.10351
G1 X138.917 Y103.484 E3.14416
G1 X139.582 Y103.759 E3.18144
G1 X140.327 Y103.857 E3.22042
G1 X141.073 Y103.759 E3.25940
G1 X141.737 Y103.484 E3.29668
G1 X142.360 Y103.019 E3.33695
G1 X142.470 Y102.876 E3.34632
G1 X143.635 Y103.565 E3.41651
G1 X143.958 Y103.799 E3.43715
G1 X144.273 Y104.063 E3.45848
G1 X144.569 Y104.349 E3.47982
G1 X144.844 Y104.655 E3.50116
G1 X145.098 Y104.979 E3.52249
G1 X145.328 Y105.321 E3.54383
G1 X145.534 Y105.677 E3.56517
G1 X145.714 Y106.047 E3.58650
G1 X145.868 Y106.429 E3.60784
G1 X145.996 Y106.820 E3.62917
G1 X146.095 Y107.219 E3.65051
G1 X146.167 Y107.625 E3.67185
G1 X146.210 Y108.034 E3.69318
G1 X146.224 Y108.445 E3.71452
G1 X146.210 Y108.857 E3.73586
G1 X146.167 Y109.266 E3.75719
G1 X146.095 Y109.672 E3.77853
G1 X145.996 Y110.071 E3.79987
G1 X145.868 Y110.462 E3.82120
G1 X145.714 Y110.844 E3.84254
G1 X145.534 Y111.214 E3.86387
G1 X145.328 Y111.570 E3.88521
G1 X145.098 Y111.912 E3.90655
G1 X144.844 Y112.236 E3.92788
G1 X144.569 Y112.542 E3.94922
G1 X144.273 Y112.828 E3.97056
G1 X143.958 Y113.092 E3.99189
G1 X143.635 Y113.326 E4.01253
G1 X142.521 Y113.985 E4.07963
G1 E3.47963 F900.00000
G92 E0
G1 X140.964 Y103.354 F9000.000
G1 E0.65000 F900.00000
G1 F960
G1 X140.327 Y103.438 E0.68331
G1 X139.690 Y103.354 E0.71662
G1 X139.124 Y103.120 E0.74837
G1 X138.586 Y102.718 E0.78320
G1 X138.184 Y102.180 E0.81802
G1 X137.950 Y101.614 E0.84978
G1 X137.866 Y100.977 E0.88309
G1 X137.950 Y100.340 E0.91640
G1 X138.184 Y99.774 E0.94815
G1 X138.583 Y99.239 E0.98274
G1 X139.096 Y98.845 E1.01628
G1 X139.690 Y98.599 E1.04959
G1 X140.327 Y98.515 E1.08291
G1 X140.964 Y98.599 E1.11621
G1 X141.558 Y98.845 E1.14952
G1 X142.071 Y99.239 E1.18307
G1 X142.470 Y99.774 E1.21766
G1 X142.705 Y100.340 E1.24941
G1 X142.789 Y100.977 E1.28272
G1 X142.705 Y101.614 E1.31603
G1 X142.459 Y102.207 E1.34934
G1 X142.065 Y102.721 E1.38288
G1 X141.530 Y103.120 E1.41748
G1 X141.020 Y103.331 E1.44612
G1 X140.856 Y102.949 F9000.000
G1 F960
G1 X140.327 Y103.019 E1.47376
G1 X139.799 Y102.949 E1.50139
G1 X139.331 Y102.756 E1.52762
G1 X138.883 Y102.421 E1.55663
G1 X138.548 Y101.973 E1.58563
G1 X138.354 Y101.505 E1.61186
G1 X138.285 Y100.977 E1.63949
G1 X138.354 Y100.448 E1.66713
G1 X138.548 Y99.981 E1.69336
G1 X138.882 Y99.534 E1.72228
G1 X139.306 Y99.208 E1.75000
G1 X139.799 Y99.004 E1.77764
G1 X140.327 Y98.934 E1.80527
G1 X140.856 Y99.004 E1.83291
G1 X141.348 Y99.208 E1.86055
G1 X141.773 Y99.534 E1.88827
G1 X142.106 Y99.981 E1.91719
G1 X142.300 Y100.448 E1.94342
G1 X142.369 Y100.977 E1.97105
G1 X142.300 Y101.505 E1.99869
G1 X142.096 Y101.998 E2.02633
G1 X141.770 Y102.422 E2.05405
G1 X141.323 Y102.756 E2.08297
G1 X140.911 Y102.926 E2.10609
G1 X140.856 Y102.949 F9000.000
G1 X142.775 Y102.574 F9000.000
G1 F1440
G1 X143.864 Y103.217 E2.17162
G1 X144.214 Y103.471 E2.19403
G1 X144.551 Y103.754 E2.21687
G1 X144.868 Y104.060 E2.23971
G1 X145.163 Y104.388 E2.26255
G1 X145.434 Y104.735 E2.28540
G1 X145.681 Y105.100 E2.30824
G1 X145.901 Y105.482 E2.33108
G1 X146.094 Y105.878 E2.35392
G1 X146.259 Y106.286 E2.37676
G1 X146.395 Y106.705 E2.39960
G1 X146.502 Y107.133 E2.42244
G1 X146.578 Y107.567 E2.44528
G1 X146.624 Y108.005 E2.46813
G1 X146.640 Y108.445 E2.49097
G1 X146.624 Y108.886 E2.51381
G1 X146.578 Y109.324 E2.53665
G1 X146.502 Y109.758 E2.55949
G1 X146.395 Y110.186 E2.58233
G1 X146.259 Y110.605 E2.60517
G1 X146.094 Y111.013 E2.62801
G1 X145.901 Y111.409 E2.65085
G1 X145.681 Y111.791 E2.67370
G1 X145.434 Y112.156 E2.69654
G1 X145.163 Y112.503 E2.71938
G1 X144.868 Y112.831 E2.74222
G1 X144.551 Y113.137 E2.76506
G1 X144.214 Y113.420 E2.78790
G1 X143.864 Y113.674 E2.81032
G1 X142.775 Y114.317 E2.87585
G1 X143.059 Y115.127 E2.92032
G1 X143.142 Y115.519 E2.94111
G1 X143.170 Y115.909 E2.96140
G1 X143.164 Y116.114 E2.97202
G1 X143.145 Y116.299 E2.98163
